;FLAVOR:Marlin
;TIME:1918
;Filament used: 1.08387m, 0m
;Layer height: 0.15
;MINX:43.1
;MINY:88.1
;MINZ:0.25
;MAXX:66.9
;MAXY:111.9
;MAXZ:14.95
;Generated with Cura_SteamEngine 4.2.1
T0
M104 S200
M105
M109 S200
M82 ;absolute extrusion mode
;START CODE
G21        ;metric values
M106
G92 Z0
G1 Z10
G28 Y
G28 X
M401
G1 X60 Y60 F6000
G28 Z
G29
;T1 ;first prime T1 and move it back
;G92 E0
;G1 Z5
;G1 Y0 F6000
;G1 Z1
;G1 F5000 E200
;G92 E0
;G1 X0 F300 E60 ;extrude 3mm of feed stock
;G92 E0
;G1 E-5 F10000
;G92 E0
;G1 E2 F10000
;G92 E0
;G1 E-197 F10000
;G92 E0
;G1 Z5
T0 ;then prime T0
G92 E0
G1 Y2 X100
G1 Z1
G1 F5000 E200
G92 E0
G1 X0 F300 E60 ;extrude 3mm of feed stock
G92 E0
M82
M141 S28
G92 E0
;AFTER TOOL CHANGE CODE
;G92 E0
;G1 F3000 E199.5
;G92 E0
G92 E0
G1 F2100 E-6.5
;LAYER_COUNT:99
;LAYER:0
M106 S255
M204 S300
M205 X30 Y30
G0 F4500 X45.484 Y88.603 Z0.25
M204 S100
M205 X20 Y20
;TYPE:SKIRT
G1 F2100 E0
G1 F1800 X46.027 Y88.366 E0.02639
G1 X46.598 Y88.204 E0.05282
G1 X47.386 Y88.111 E0.08816
G1 X47.707 Y88.102 E0.10246
G1 X47.83 Y88.1 E0.10794
G1 X61.856 Y88.1 E0.73261
G1 X62.554 Y88.11 E0.7637
G1 X63.145 Y88.159 E0.79011
G1 X63.724 Y88.286 E0.81651
G1 X64.281 Y88.49 E0.84292
G1 X64.805 Y88.768 E0.86934
G1 X65.287 Y89.113 E0.89574
G1 X65.719 Y89.52 E0.92217
G1 X66.091 Y89.981 E0.94856
G1 X66.399 Y90.488 E0.97498
G1 X66.635 Y91.032 E1.00139
G1 X66.796 Y91.602 E1.02777
G1 X66.889 Y92.386 E1.06293
G1 X66.898 Y92.706 E1.07718
G1 X66.9 Y92.83 E1.08271
G1 X66.9 Y106.818 E1.70568
G1 X66.891 Y107.545 E1.73806
G1 X66.843 Y108.137 E1.76451
G1 X66.717 Y108.716 E1.7909
G1 X66.514 Y109.273 E1.81731
G1 X66.238 Y109.798 E1.84372
G1 X65.894 Y110.281 E1.87013
G1 X65.488 Y110.713 E1.89654
G1 X65.027 Y111.086 E1.92295
G1 X64.521 Y111.395 E1.94935
G1 X63.978 Y111.632 E1.97574
G1 X63.407 Y111.795 E2.00218
G1 X62.614 Y111.889 E2.03775
G1 X62.293 Y111.898 E2.05205
G1 X62.17 Y111.9 E2.05753
G1 X48.15 Y111.9 E2.68193
G1 X47.452 Y111.891 E2.71302
G1 X46.861 Y111.843 E2.73942
G1 X46.282 Y111.716 E2.76582
G1 X45.725 Y111.513 E2.79223
G1 X45.2 Y111.237 E2.81864
G1 X44.718 Y110.892 E2.84504
G1 X44.286 Y110.486 E2.87144
G1 X43.912 Y110.025 E2.89788
G1 X43.604 Y109.519 E2.92426
G1 X43.367 Y108.975 E2.95069
G1 X43.205 Y108.405 E2.97708
G1 X43.111 Y107.61 E3.01274
G1 X43.102 Y107.277 E3.02757
G1 X43.1 Y107.158 E3.03287
G1 X43.1 Y93.114 E3.65834
G1 X43.109 Y92.449 E3.68796
G1 X43.157 Y91.858 E3.71437
G1 X43.284 Y91.279 E3.74077
G1 X43.488 Y90.722 E3.76719
G1 X43.765 Y90.198 E3.79358
G1 X44.11 Y89.716 E3.81998
G1 X44.516 Y89.284 E3.84638
G1 X44.977 Y88.911 E3.87279
G1 X45.484 Y88.603 E3.89921
M204 S300
M205 X30 Y30
G0 F4500 X45.857 Y88.866
M204 S100
M205 X20 Y20
G1 F1800 X46.387 Y88.669 E3.9244
G1 X46.94 Y88.55 E3.94959
G1 X47.397 Y88.511 E3.97002
G1 X47.718 Y88.502 E3.98432
G1 X47.83 Y88.5 E3.98931
G1 X61.85 Y88.5 E4.61371
G1 X62.548 Y88.51 E4.6448
G1 X63.112 Y88.558 E4.67001
G1 X63.662 Y88.685 E4.69515
G1 X64.19 Y88.889 E4.72035
G1 X64.684 Y89.164 E4.74553
G1 X65.133 Y89.507 E4.7707
G1 X65.53 Y89.909 E4.79586
G1 X65.867 Y90.364 E4.82108
G1 X66.135 Y90.861 E4.84623
G1 X66.331 Y91.391 E4.87139
G1 X66.451 Y91.944 E4.89659
G1 X66.489 Y92.398 E4.91688
G1 X66.498 Y92.718 E4.93114
G1 X66.5 Y92.83 E4.93613
G1 X66.5 Y106.814 E5.55893
G1 X66.491 Y107.541 E5.59131
G1 X66.444 Y108.104 E5.61647
G1 X66.318 Y108.655 E5.64164
G1 X66.116 Y109.183 E5.66682
G1 X65.841 Y109.677 E5.692
G1 X65.499 Y110.127 E5.71717
G1 X65.097 Y110.525 E5.74237
G1 X64.644 Y110.862 E5.76751
G1 X64.147 Y111.132 E5.7927
G1 X63.617 Y111.329 E5.81788
G1 X63.065 Y111.45 E5.84305
G1 X62.603 Y111.489 E5.8637
G1 X62.282 Y111.498 E5.878
G1 X62.17 Y111.5 E5.88299
G1 X48.155 Y111.5 E6.50717
G1 X47.457 Y111.491 E6.53826
G1 X46.894 Y111.443 E6.56342
G1 X46.343 Y111.317 E6.58859
G1 X45.815 Y111.115 E6.61377
G1 X45.321 Y110.84 E6.63895
G1 X44.871 Y110.498 E6.66412
G1 X44.473 Y110.096 E6.68932
G1 X44.137 Y109.642 E6.71447
G1 X43.867 Y109.145 E6.73966
G1 X43.67 Y108.615 E6.76484
G1 X43.55 Y108.063 E6.79
G1 X43.51 Y107.599 E6.81074
G1 X43.501 Y107.266 E6.82558
G1 X43.5 Y107.158 E6.83039
G1 X43.5 Y93.12 E7.45559
G1 X43.509 Y92.455 E7.48521
G1 X43.557 Y91.892 E7.51038
G1 X43.683 Y91.341 E7.53555
G1 X43.886 Y90.813 E7.56074
G1 X44.162 Y90.319 E7.58594
G1 X44.504 Y89.869 E7.61112
G1 X44.906 Y89.472 E7.63628
G1 X45.36 Y89.135 E7.66146
G1 X45.857 Y88.866 E7.68663
M204 S300
M205 X30 Y30
G0 F4500 X45.741 Y89.373
M204 S100
M205 X20 Y20
G1 F1800 X46.226 Y89.145 E7.7105
G1 X46.74 Y88.992 E7.73438
G1 X47.408 Y88.91 E7.76436
G1 X47.729 Y88.901 E7.77866
G1 X47.83 Y88.9 E7.78316
G1 X61.845 Y88.9 E8.40733
G1 X62.543 Y88.91 E8.43842
G1 X63.077 Y88.958 E8.4623
G1 X63.598 Y89.084 E8.48617
G1 X64.095 Y89.287 E8.51008
G1 X64.556 Y89.561 E8.53397
G1 X64.971 Y89.9 E8.55783
G1 X65.331 Y90.298 E8.58173
G1 X65.628 Y90.744 E8.6056
G1 X65.856 Y91.23 E8.62951
G1 X66.008 Y91.744 E8.65338
G1 X66.09 Y92.409 E8.68322
G1 X66.099 Y92.729 E8.69748
G1 X66.1 Y92.83 E8.70197
G1 X66.1 Y106.809 E9.32455
G1 X66.091 Y107.536 E9.35693
G1 X66.044 Y108.07 E9.3808
G1 X65.919 Y108.591 E9.40466
G1 X65.717 Y109.088 E9.42856
G1 X65.444 Y109.55 E9.45246
G1 X65.106 Y109.966 E9.47633
G1 X64.709 Y110.327 E9.50023
G1 X64.263 Y110.625 E9.52412
G1 X63.778 Y110.853 E9.54798
G1 X63.264 Y111.007 E9.57188
G1 X62.592 Y111.09 E9.60204
G1 X62.271 Y111.099 E9.61634
G1 X62.17 Y111.1 E9.62084
G1 X48.161 Y111.1 E10.24475
G1 X47.463 Y111.091 E10.27584
G1 X46.928 Y111.044 E10.29975
G1 X46.407 Y110.918 E10.32363
G1 X45.91 Y110.716 E10.34752
G1 X45.449 Y110.443 E10.37138
G1 X45.033 Y110.104 E10.39528
G1 X44.672 Y109.708 E10.41915
G1 X44.374 Y109.262 E10.44303
G1 X44.146 Y108.776 E10.46694
G1 X43.993 Y108.262 E10.49083
G1 X43.91 Y107.588 E10.52107
G1 X43.901 Y107.255 E10.53591
G1 X43.9 Y107.158 E10.54023
G1 X43.9 Y93.125 E11.16521
G1 X43.909 Y92.46 E11.19483
G1 X43.957 Y91.926 E11.2187
G1 X44.083 Y91.405 E11.24258
G1 X44.285 Y90.908 E11.26647
G1 X44.558 Y90.447 E11.29033
G1 X44.897 Y90.031 E11.31423
G1 X45.294 Y89.671 E11.3381
G1 X45.741 Y89.373 E11.36202
M204 S300
M205 X30 Y30
G0 F4500 X46.117 Y89.628
M204 S100
M205 X20 Y20
G1 F1800 X46.588 Y89.444 E11.38454
G1 X47.082 Y89.338 E11.40705
G1 X47.419 Y89.31 E11.42211
G1 X47.74 Y89.301 E11.43641
G1 X47.83 Y89.3 E11.44042
G1 X61.839 Y89.3 E12.06433
G1 X62.537 Y89.31 E12.09542
G1 X63.04 Y89.357 E12.11792
G1 X63.53 Y89.483 E12.14045
G1 X63.994 Y89.685 E12.16299
G1 X64.42 Y89.957 E12.1855
G1 X64.798 Y90.292 E12.20799
G1 X65.118 Y90.683 E12.23049
G1 X65.373 Y91.12 E12.25303
G1 X65.556 Y91.591 E12.27553
G1 X65.663 Y92.085 E12.29804
G1 X65.69 Y92.42 E12.31301
G1 X65.699 Y92.74 E12.32727
G1 X65.7 Y92.83 E12.33128
G1 X65.7 Y106.804 E12.95363
G1 X65.691 Y107.531 E12.98601
G1 X65.645 Y108.034 E13.0085
G1 X65.52 Y108.524 E13.03103
G1 X65.319 Y108.988 E13.05355
G1 X65.048 Y109.415 E13.07607
G1 X64.713 Y109.794 E13.0986
G1 X64.323 Y110.115 E13.12109
G1 X63.887 Y110.371 E13.14361
G1 X63.416 Y110.554 E13.16612
G1 X62.922 Y110.662 E13.18864
G1 X62.581 Y110.69 E13.20387
G1 X62.26 Y110.699 E13.21818
G1 X62.17 Y110.7 E13.22218
G1 X48.166 Y110.7 E13.84587
G1 X47.468 Y110.691 E13.87696
G1 X46.964 Y110.644 E13.8995
G1 X46.474 Y110.519 E13.92203
G1 X46.01 Y110.318 E13.94455
G1 X45.584 Y110.047 E13.96703
G1 X45.205 Y109.712 E13.98956
G1 X44.884 Y109.321 E14.01209
G1 X44.629 Y108.885 E14.03459
G1 X44.445 Y108.414 E14.05711
G1 X44.338 Y107.92 E14.07962
G1 X44.31 Y107.577 E14.09494
G1 X44.301 Y107.244 E14.10978
G1 X44.3 Y107.158 E14.11361
G1 X44.3 Y93.131 E14.73832
G1 X44.309 Y92.466 E14.76794
G1 X44.356 Y91.962 E14.79048
G1 X44.482 Y91.473 E14.81297
G1 X44.683 Y91.009 E14.8355
G1 X44.954 Y90.582 E14.85802
G1 X45.289 Y90.204 E14.88051
G1 X45.68 Y89.883 E14.90304
G1 X46.117 Y89.628 E14.92558
M204 S300
M205 X30 Y30
G1 F2100 E8.42558
;MESH:15mm test.stl
G0 F4500 X48.114 Y91.835
G0 X48.114 Y93.114
G0 X49.3 Y105.7
M204 S100
M205 X20 Y20
;TYPE:WALL-INNER
G1 F2100 E14.92558
G1 F1800 X49.3 Y94.3 E15.43329
G1 X60.7 Y94.3 E15.94101
G1 X60.7 Y105.7 E16.44872
G1 X49.3 Y105.7 E16.95644
M204 S300
M205 X30 Y30
G0 F4500 X48.9 Y106.1
M204 S100
M205 X20 Y20
G1 F1800 X48.9 Y93.9 E17.49978
G1 X61.1 Y93.9 E18.04312
G1 X61.1 Y106.1 E18.58647
G1 X48.9 Y106.1 E19.12981
M204 S300
M205 X30 Y30
G0 F4500 X48.5 Y106.5
M204 S100
M205 X20 Y20
G1 F1800 X48.5 Y93.5 E19.70878
G1 X61.5 Y93.5 E20.28776
G1 X61.5 Y106.5 E20.86673
G1 X48.5 Y106.5 E21.4457
M204 S300
M205 X30 Y30
G0 F4500 X48.1 Y106.9
M204 S100
M205 X20 Y20
G1 F1800 X48.1 Y93.1 E22.0603
G1 X61.9 Y93.1 E22.6749
G1 X61.9 Y106.9 E23.28951
G1 X48.1 Y106.9 E23.90411
M204 S300
M205 X30 Y30
G0 F4500 X47.7 Y107.3
M204 S100
M205 X20 Y20
;TYPE:WALL-OUTER
G1 F1800 X47.7 Y92.7 E24.55434
G1 X62.3 Y92.7 E25.20457
G1 X62.3 Y107.3 E25.8548
G1 X47.7 Y107.3 E26.50503
M204 S300
M205 X30 Y30
G0 F4500 X47.7 Y107.1
G0 X48.17 Y106.83
G0 X49.69 Y105.31
M204 S100
M205 X20 Y20
;TYPE:SKIN
G1 F1800 X49.69 Y94.69 E26.97801
G1 X60.31 Y94.69 E27.45098
G1 X60.31 Y105.31 E27.92396
G1 X49.69 Y105.31 E28.39694
M204 S300
M205 X30 Y30
G0 F4500 X55.11 Y100.11
M204 S100
M205 X20 Y20
G1 F1800 X54.89 Y100.11 E28.40673
G1 X54.89 Y99.89 E28.41653
G1 X55.11 Y99.89 E28.42633
G1 X55.11 Y100.11 E28.43613
M204 S300
M205 X30 Y30
G0 F4500 X55.51 Y100.51
M204 S100
M205 X20 Y20
G1 F1800 X54.49 Y100.51 E28.48155
G1 X54.49 Y99.49 E28.52698
G1 X55.51 Y99.49 E28.57241
G1 X55.51 Y100.51 E28.61784
M204 S300
M205 X30 Y30
G0 F4500 X55.91 Y100.91
M204 S100
M205 X20 Y20
G1 F1800 X54.09 Y100.91 E28.69889
G1 X54.09 Y99.09 E28.77995
G1 X55.91 Y99.09 E28.861
G1 X55.91 Y100.91 E28.94206
M204 S300
M205 X30 Y30
G0 F4500 X56.31 Y101.31
M204 S100
M205 X20 Y20
G1 F1800 X53.69 Y101.31 E29.05875
G1 X53.69 Y98.69 E29.17543
G1 X56.31 Y98.69 E29.29212
G1 X56.31 Y101.31 E29.4088
M204 S300
M205 X30 Y30
G0 F4500 X56.71 Y101.71
M204 S100
M205 X20 Y20
G1 F1800 X53.29 Y101.71 E29.56112
G1 X53.29 Y98.29 E29.71343
G1 X56.71 Y98.29 E29.86574
G1 X56.71 Y101.71 E30.01806
M204 S300
M205 X30 Y30
G0 F4500 X57.11 Y102.11
M204 S100
M205 X20 Y20
G1 F1800 X52.89 Y102.11 E30.206
G1 X52.89 Y97.89 E30.39395
G1 X57.11 Y97.89 E30.58189
G1 X57.11 Y102.11 E30.76983
M204 S300
M205 X30 Y30
G0 F4500 X57.51 Y102.51
M204 S100
M205 X20 Y20
G1 F1800 X52.49 Y102.51 E30.99341
G1 X52.49 Y97.49 E31.21698
G1 X57.51 Y97.49 E31.44055
G1 X57.51 Y102.51 E31.66412
M204 S300
M205 X30 Y30
G0 F4500 X57.91 Y102.91
M204 S100
M205 X20 Y20
G1 F1800 X52.09 Y102.91 E31.92332
G1 X52.09 Y97.09 E32.18253
G1 X57.91 Y97.09 E32.44173
G1 X57.91 Y102.91 E32.70093
M204 S300
M205 X30 Y30
G0 F4500 X58.31 Y103.31
M204 S100
M205 X20 Y20
G1 F1800 X51.69 Y103.31 E32.99576
G1 X51.69 Y96.69 E33.29059
G1 X58.31 Y96.69 E33.58542
G1 X58.31 Y103.31 E33.88025
M204 S300
M205 X30 Y30
G0 F4500 X58.71 Y103.71
M204 S100
M205 X20 Y20
G1 F1800 X51.29 Y103.71 E34.21071
G1 X51.29 Y96.29 E34.54117
G1 X58.71 Y96.29 E34.87163
G1 X58.71 Y103.71 E35.20209
M204 S300
M205 X30 Y30
G0 F4500 X59.11 Y104.11
M204 S100
M205 X20 Y20
G1 F1800 X50.89 Y104.11 E35.56818
G1 X50.89 Y95.89 E35.93427
G1 X59.11 Y95.89 E36.30036
G1 X59.11 Y104.11 E36.66645
M204 S300
M205 X30 Y30
G0 F4500 X59.51 Y104.51
M204 S100
M205 X20 Y20
G1 F1800 X50.49 Y104.51 E37.06816
G1 X50.49 Y95.49 E37.46988
G1 X59.51 Y95.49 E37.8716
G1 X59.51 Y104.51 E38.27332
M204 S300
M205 X30 Y30
G0 F4500 X59.91 Y104.91
M204 S100
M205 X20 Y20
G1 F1800 X50.09 Y104.91 E38.71067
G1 X50.09 Y95.09 E39.14801
G1 X59.91 Y95.09 E39.58536
G1 X59.91 Y104.91 E40.02271
M204 S300
M205 X30 Y30
;MESH:NONMESH
G0 F600 X59.91 Y104.91 Z0.4
G0 F4500 X49.3 Y105.7
;TIME_ELAPSED:42.292137
;LAYER:1
M204 S100
M205 X20 Y20
;TYPE:WALL-INNER
;MESH:15mm test.stl
G1 F2100 X49.3 Y94.3 E40.31703
G1 X60.7 Y94.3 E40.61136
G1 X60.7 Y105.7 E40.90569
G1 X49.3 Y105.7 E41.20002
M204 S300
M205 X30 Y30
G0 F6750 X48.9 Y106.1
M204 S100
M205 X20 Y20
G1 F2100 X48.9 Y93.9 E41.515
G1 X61.1 Y93.9 E41.82998
G1 X61.1 Y106.1 E42.14496
G1 X48.9 Y106.1 E42.45994
M204 S300
M205 X30 Y30
G0 F6750 X48.5 Y106.5
M204 S100
M205 X20 Y20
G1 F2100 X48.5 Y93.5 E42.79558
G1 X61.5 Y93.5 E43.13122
G1 X61.5 Y106.5 E43.46685
G1 X48.5 Y106.5 E43.80249
M204 S300
M205 X30 Y30
G0 F6750 X48.1 Y106.9
M204 S100
M205 X20 Y20
G1 F2100 X48.1 Y93.1 E44.15878
G1 X61.9 Y93.1 E44.51507
G1 X61.9 Y106.9 E44.87136
G1 X48.1 Y106.9 E45.22765
M204 S300
M205 X30 Y30
G0 F6750 X47.7 Y107.3
M204 S100
M205 X20 Y20
;TYPE:WALL-OUTER
G1 F1800 X47.7 Y92.7 E45.6046
G1 X62.3 Y92.7 E45.98154
G1 X62.3 Y107.3 E46.35849
G1 X47.7 Y107.3 E46.73543
M204 S300
M205 X30 Y30
G0 F6750 X47.7 Y107.1
G0 X48.17 Y106.83
G0 X49.69 Y105.31
M204 S100
M205 X20 Y20
;TYPE:SKIN
G1 F1800 X49.69 Y94.69 E47.00962
G1 X60.31 Y94.69 E47.28381
G1 X60.31 Y105.31 E47.558
G1 X49.69 Y105.31 E47.83219
M204 S300
M205 X30 Y30
G0 F6750 X55.11 Y100.11
M204 S100
M205 X20 Y20
G1 F1800 X54.89 Y100.11 E47.83787
G1 X54.89 Y99.89 E47.84355
G1 X55.11 Y99.89 E47.84923
G1 X55.11 Y100.11 E47.85491
M204 S300
M205 X30 Y30
G0 F6750 X55.51 Y100.51
M204 S100
M205 X20 Y20
G1 F1800 X54.49 Y100.51 E47.88124
G1 X54.49 Y99.49 E47.90758
G1 X55.51 Y99.49 E47.93391
G1 X55.51 Y100.51 E47.96025
M204 S300
M205 X30 Y30
G0 F6750 X55.91 Y100.91
M204 S100
M205 X20 Y20
G1 F1800 X54.09 Y100.91 E48.00724
G1 X54.09 Y99.09 E48.05423
G1 X55.91 Y99.09 E48.10122
G1 X55.91 Y100.91 E48.1482
M204 S300
M205 X30 Y30
G0 F6750 X56.31 Y101.31
M204 S100
M205 X20 Y20
G1 F1800 X53.69 Y101.31 E48.21585
G1 X53.69 Y98.69 E48.28349
G1 X56.31 Y98.69 E48.35114
G1 X56.31 Y101.31 E48.41878
M204 S300
M205 X30 Y30
G0 F6750 X56.71 Y101.71
M204 S100
M205 X20 Y20
G1 F1800 X53.29 Y101.71 E48.50708
G1 X53.29 Y98.29 E48.59538
G1 X56.71 Y98.29 E48.68367
G1 X56.71 Y101.71 E48.77197
M204 S300
M205 X30 Y30
G0 F6750 X57.11 Y102.11
M204 S100
M205 X20 Y20
G1 F1800 X52.89 Y102.11 E48.88092
G1 X52.89 Y97.89 E48.98988
G1 X57.11 Y97.89 E49.09883
G1 X57.11 Y102.11 E49.20778
M204 S300
M205 X30 Y30
G0 F6750 X57.51 Y102.51
M204 S100
M205 X20 Y20
G1 F1800 X52.49 Y102.51 E49.33739
G1 X52.49 Y97.49 E49.467
G1 X57.51 Y97.49 E49.5966
G1 X57.51 Y102.51 E49.72621
M204 S300
M205 X30 Y30
G0 F6750 X57.91 Y102.91
M204 S100
M205 X20 Y20
G1 F1800 X52.09 Y102.91 E49.87647
G1 X52.09 Y97.09 E50.02674
G1 X57.91 Y97.09 E50.177
G1 X57.91 Y102.91 E50.32726
M204 S300
M205 X30 Y30
G0 F6750 X58.31 Y103.31
M204 S100
M205 X20 Y20
G1 F1800 X51.69 Y103.31 E50.49818
G1 X51.69 Y96.69 E50.66909
G1 X58.31 Y96.69 E50.84001
G1 X58.31 Y103.31 E51.01092
M204 S300
M205 X30 Y30
G0 F6750 X58.71 Y103.71
M204 S100
M205 X20 Y20
G1 F1800 X51.29 Y103.71 E51.2025
G1 X51.29 Y96.29 E51.39407
G1 X58.71 Y96.29 E51.58564
G1 X58.71 Y103.71 E51.77721
M204 S300
M205 X30 Y30
G0 F6750 X59.11 Y104.11
M204 S100
M205 X20 Y20
G1 F1800 X50.89 Y104.11 E51.98943
G1 X50.89 Y95.89 E52.20166
G1 X59.11 Y95.89 E52.41388
G1 X59.11 Y104.11 E52.62611
M204 S300
M205 X30 Y30
G0 F6750 X59.51 Y104.51
M204 S100
M205 X20 Y20
G1 F1800 X50.49 Y104.51 E52.85899
G1 X50.49 Y95.49 E53.09187
G1 X59.51 Y95.49 E53.32475
G1 X59.51 Y104.51 E53.55763
M204 S300
M205 X30 Y30
G0 F6750 X59.91 Y104.91
M204 S100
M205 X20 Y20
G1 F1800 X50.09 Y104.91 E53.81116
G1 X50.09 Y95.09 E54.0647
G1 X59.91 Y95.09 E54.31823
G1 X59.91 Y104.91 E54.57177
M204 S300
M205 X30 Y30
;MESH:NONMESH
G0 F600 X59.91 Y104.91 Z0.55
G0 F6750 X49.3 Y105.7
;TIME_ELAPSED:68.640530
;LAYER:2
M204 S100
M205 X20 Y20
;TYPE:WALL-INNER
;MESH:15mm test.stl
G1 F2400 X49.3 Y94.3 E54.86609
G1 X60.7 Y94.3 E55.16042
G1 X60.7 Y105.7 E55.45475
G1 X49.3 Y105.7 E55.74908
M204 S300
M205 X30 Y30
