;FLAVOR:Marlin
;TIME:620
;Filament used: 0.536192m
;Layer height: 0.15
;MINX:-7.3
;MINY:292.7
;MINZ:0.2
;MAXX:7.3
;MAXY:307.3
;MAXZ:14.9
;Generated with Cura_SteamEngine master
M104 S205
M105
M109 S205
M82 ;absolute extrusion mode
G28 ;Home
G1 Z15.0 F6000 ;Move the platform down 15mm
;Prime the extruder
G92 E0
G1 F200 E3
G92 E0
G92 E0
G92 E0
G1 F1500 E-6.5
;LAYER_COUNT:99
;LAYER:0
M107
;MESH:tiao.STL
G0 F3600 X-0.329 Y14.614
G0 X-0.657 Y29.229
G0 X-0.986 Y43.843
G0 X-1.314 Y58.457
G0 X-1.643 Y73.071
G0 X-1.971 Y87.686
G0 X-2.3 Y102.3
G0 X-2.629 Y116.914
G0 X-2.957 Y131.529
G0 X-3.286 Y146.143
G0 X-3.614 Y160.757
G0 X-3.943 Y175.371
G0 X-4.271 Y189.986
G0 X-4.6 Y204.6
G0 X-4.929 Y219.214
G0 X-5.257 Y233.829
G0 X-5.586 Y248.443
G0 X-5.914 Y263.057
G0 X-6.243 Y277.671
G0 X-6.571 Y292.286
G0 X-6.9 Y306.9 Z0.2
;TYPE:WALL-INNER
G1 F1500 E0
G1 X-6.9 Y293.1 E0.46428
G1 X6.9 Y293.1 E0.92856
G1 X6.9 Y306.9 E1.39284
G1 X-6.9 Y306.9 E1.85712
G0 F3600 X-7.3 Y307.3
;TYPE:WALL-OUTER
G1 F1500 X-7.3 Y292.7 E2.34832
G1 X7.3 Y292.7 E2.83951
G1 X7.3 Y307.3 E3.33071
G1 X-7.3 Y307.3 E3.82191
G0 F3600 X-7.3 Y307.1
G0 X-6.51 Y306.51
;TYPE:SKIN
G1 F1500 X-6.51 Y293.49 E4.25994
G1 X6.51 Y293.49 E4.69798
G1 X6.51 Y306.51 E5.13602
G1 X-6.51 Y306.51 E5.57406
G0 F3600 X-5.928 Y306.329
G1 F1500 X-6.33 Y305.928 E5.59316
G0 F3600 X-6.33 Y305.362
G1 F1500 X-5.362 Y306.329 E5.6392
G0 F3600 X-4.797 Y306.329
G1 F1500 X-6.33 Y304.796 E5.71214
G0 F3600 X-6.33 Y304.231
G1 F1500 X-4.231 Y306.329 E5.81198
G0 F3600 X-3.665 Y306.329
G1 F1500 X-6.33 Y303.665 E5.93875
G0 F3600 X-6.33 Y303.099
G1 F1500 X-3.099 Y306.329 E6.09246
G0 F3600 X-2.534 Y306.329
G1 F1500 X-6.33 Y302.534 E6.27305
G0 F3600 X-6.33 Y301.968
G1 F1500 X-1.968 Y306.329 E6.48056
G0 F3600 X-1.402 Y306.329
G1 F1500 X-6.33 Y301.402 E6.71501
G0 F3600 X-6.33 Y300.837
G1 F1500 X-.837 Y306.329 E6.97634
G0 F3600 X-.271 Y306.329
G1 F1500 X-6.33 Y300.271 E7.2646
G0 F3600 X-6.33 Y299.705
G1 F1500 X0.294 Y306.329 E7.57976
G0 F3600 X0.859 Y306.329
G1 F1500 X-6.33 Y299.14 E7.92181
G0 F3600 X-6.33 Y298.574
G1 F1500 X1.425 Y306.329 E8.29078
G0 F3600 X1.991 Y306.329
G1 F1500 X-6.33 Y298.008 E8.68669
G0 F3600 X-6.33 Y297.443
G1 F1500 X2.556 Y306.329 E9.10948
G0 F3600 X3.122 Y306.329
G1 F1500 X-6.33 Y296.877 E9.55919
G0 F3600 X-6.33 Y296.311
G1 F1500 X3.688 Y306.329 E10.03584
G0 F3600 X4.253 Y306.329
G1 F1500 X-6.33 Y295.745 E10.5394
G0 F3600 X-6.33 Y295.18
G1 F1500 X-0.755 Y300.755 E10.80463
G1 X4.819 Y306.329 E11.06986
G0 F3600 X5.385 Y306.329
G1 F1500 X-0.473 Y300.471 E11.34856
G1 X-6.33 Y294.614 E11.62725
G0 F3600 X-6.33 Y294.048
G1 F1500 X-0.190 Y300.188 E11.91941
G1 X5.951 Y306.329 E12.21157
G0 F3600 X6.33 Y306.143
G1 F1500 X0.094 Y299.906 E12.50831
G1 X-6.143 Y293.669 E12.80504
G0 F3600 X-5.577 Y293.669
G1 F1500 X0.377 Y299.623 E13.08831
G1 X6.33 Y305.577 E13.37159
G0 F3600 X6.33 Y305.011
G1 F1500 X0.659 Y299.34 E13.64140
G1 X-5.011 Y293.669 E13.91121
G0 F3600 X-4.446 Y293.669
G1 F1500 X0.942 Y299.058 E14.16758
G1 X6.33 Y304.446 E14.42395
G0 F3600 X6.33 Y303.88
G1 F1500 X-3.88 Y293.669 E14.90975
G0 F3600 X-3.314 Y293.669
G1 F1500 X6.33 Y303.314 E15.36863
G0 F3600 X6.33 Y302.749
G1 F1500 X-2.749 Y293.669 E15.80063
G0 F3600 X-2.183 Y293.669
G1 F1500 X6.33 Y302.183 E16.20569
G0 F3600 X6.33 Y301.617
G1 F1500 X-1.617 Y293.669 E16.58383
G0 F3600 X-1.052 Y293.669
G1 F1500 X6.33 Y301.052 E16.93508
G0 F3600 X6.33 Y300.486
G1 F1500 X-.486 Y293.669 E17.2594
G0 F3600 X0.079 Y293.669
G1 F1500 X6.33 Y299.92 E17.55682
G0 F3600 X6.33 Y299.355
G1 F1500 X0.644 Y293.669 E17.82736
G0 F3600 X1.21 Y293.669
G1 F1500 X6.33 Y298.789 E18.07096
G0 F3600 X6.33 Y298.223
G1 F1500 X1.776 Y293.669 E18.28764
G0 F3600 X2.341 Y293.669
G1 F1500 X6.33 Y297.658 E18.47743
G0 F3600 X6.33 Y297.092
G1 F1500 X2.907 Y293.669 E18.64029
G0 F3600 X3.473 Y293.669
G1 F1500 X6.33 Y296.526 E18.77623
G0 F3600 X6.33 Y295.96
G1 F1500 X4.038 Y293.669 E18.88525
G0 F3600 X4.604 Y293.669
G1 F1500 X6.33 Y295.395 E18.96738
G0 F3600 X6.33 Y294.829
G1 F1500 X5.17 Y293.669 E19.02257
G0 F3600 X5.736 Y293.669
G1 F1500 X6.33 Y294.263 E19.05083
G1 X6.4 Y294.333
;MESH:NONMESH
G0 F600 X6.4 Y294.333 Z0.35
G0 F3600 X-0.215 Y300.582
G0 X-6.83 Y306.83
G0 X-6.9 Y306.9
;TIME_ELAPSED:30.816291
;LAYER:1
M106 S255
;TYPE:WALL-INNER
;MESH:tiao.STL
G1 F2130 X-6.9 Y293.1 E19.39904
G1 X6.9 Y293.1 E19.74725
G1 X6.9 Y306.9 E20.09546
G1 X-6.9 Y306.9 E20.44367
G0 F4500 X-7.3 Y307.3
;TYPE:WALL-OUTER
G1 F1635 X-7.3 Y292.7 E20.81207
G1 X7.3 Y292.7 E21.18046
G1 X7.3 Y307.3 E21.54886
G1 X-7.3 Y307.3 E21.91726
G0 F4500 X-7.3 Y307.1
G0 X-6.51 Y306.51
;TYPE:SKIN
G1 F1500 X-6.51 Y293.49 E22.24579
G1 X6.51 Y293.49 E22.57432
G1 X6.51 Y306.51 E22.90285
G1 X-6.51 Y306.51 E23.23137
G0 F4500 X-6.33 Y294.263
G1 F1500 X-5.736 Y293.669 E23.25257
G0 F4500 X-5.17 Y293.669
G1 F1500 X-6.33 Y294.829 E23.29396
G0 F4500 X-6.33 Y295.395
G1 F1500 X-4.604 Y293.669 E23.35556
G0 F4500 X-4.038 Y293.669
G1 F1500 X-6.33 Y295.96 E23.43733
G0 F4500 X-6.33 Y296.526
G1 F1500 X-3.473 Y293.669 E23.53928
G0 F4500 X-2.907 Y293.669
G1 F1500 X-6.33 Y297.092 E23.66142
G0 F4500 X-6.33 Y297.658
G1 F1500 X-2.341 Y293.669 E23.80377
G0 F4500 X-1.776 Y293.669
G1 F1500 X-6.33 Y298.223 E23.96628
G0 F4500 X-6.33 Y298.789
G1 F1500 X-1.21 Y293.669 E24.14898
G0 F4500 X-.644 Y293.669
G1 F1500 X-6.33 Y299.355 E24.35188
G0 F4500 X-6.33 Y299.92
G1 F1500 X-0.079 Y293.669 E24.57494
G0 F4500 X0.486 Y293.669
G1 F1500 X-6.33 Y300.486 E24.81819
G0 F4500 X-6.33 Y301.052
G1 F1500 X1.052 Y293.669 E25.08163
G0 F4500 X1.617 Y293.669
G1 F1500 X-6.33 Y301.617 E25.36523
G0 F4500 X-6.33 Y302.183
G1 F1500 X2.183 Y293.669 E25.66903
G0 F4500 X2.749 Y293.669
G1 F1500 X-6.33 Y302.749 E25.99302
G0 F4500 X-6.33 Y303.314
G1 F1500 X3.314 Y293.669 E26.33718
G0 F4500 X3.88 Y293.669
G1 F1500 X-6.33 Y303.88 E26.70154
G0 F4500 X-6.33 Y304.446
G1 F1500 X-0.942 Y299.058 E26.89382
G1 X4.446 Y293.669 E27.08609
G0 F4500 X5.011 Y293.669
G1 F1500 X-0.660 Y299.34 E27.28844
G1 X-6.33 Y305.011 E27.49080
G0 F4500 X-6.33 Y305.577
G1 F1500 X-0.377 Y299.623 E27.70325
G1 X5.577 Y293.669 E27.91571
G0 F4500 X6.143 Y293.669
G1 F1500 X-0.093 Y299.906 E28.13827
G1 X-6.33 Y306.143 E28.36082
G0 F4500 X-5.951 Y306.329
G1 F1500 X0.189 Y300.188 E28.57994
G1 X6.33 Y294.048 E28.79906
G0 F4500 X6.33 Y294.614
G1 F1500 X0.473 Y300.471 E29.00808
G1 X-5.385 Y306.329 E29.21710
G0 F4500 X-4.819 Y306.329
G1 F1500 X0.756 Y300.755 E29.41602
G1 X6.33 Y295.18 E29.61495
G0 F4500 X6.33 Y295.745
G1 F1500 X-4.253 Y306.329 E29.99261
G0 F4500 X-3.688 Y306.329
G1 F1500 X6.33 Y296.311 E30.3501
G0 F4500 X6.33 Y296.877
G1 F1500 X-3.122 Y306.329 E30.68739
G0 F4500 X-2.556 Y306.329
G1 F1500 X6.33 Y297.443 E31.00448
G0 F4500 X6.33 Y298.008
G1 F1500 X-1.991 Y306.329 E31.30141
G0 F4500 X-1.425 Y306.329
G1 F1500 X6.33 Y298.574 E31.57814
G0 F4500 X6.33 Y299.14
G1 F1500 X-.859 Y306.329 E31.83468
G0 F4500 X-.294 Y306.329
G1 F1500 X6.33 Y299.705 E32.07105
G0 F4500 X6.33 Y300.271
G1 F1500 X0.271 Y306.329 E32.28724
G0 F4500 X0.837 Y306.329
G1 F1500 X6.33 Y300.837 E32.48324
G0 F4500 X6.33 Y301.402
G1 F1500 X1.402 Y306.329 E32.65907
G0 F4500 X1.968 Y306.329
G1 F1500 X6.33 Y301.968 E32.81471
G0 F4500 X6.33 Y302.534
G1 F1500 X2.534 Y306.329 E32.95015
G0 F4500 X3.099 Y306.329
G1 F1500 X6.33 Y303.099 E33.06543
G0 F4500 X6.33 Y303.665
G1 F1500 X3.665 Y306.329 E33.16051
G0 F4500 X4.231 Y306.329
G1 F1500 X6.33 Y304.231 E33.23539
G0 F4500 X6.33 Y304.796
G1 F1500 X4.797 Y306.329 E33.2901
G0 F4500 X5.362 Y306.329
G1 F1500 X6.33 Y305.362 E33.32462
G0 F4500 X6.33 Y305.928
G1 F1500 X5.928 Y306.329 E33.33895
;MESH:NONMESH
G0 F600 X5.928 Y306.329 Z0.5
G0 F4500 X-6.83 Y306.83
G0 X-6.9 Y306.9
;TIME_ELAPSED:53.980301
;LAYER:2
;TYPE:WALL-INNER
;MESH:tiao.STL
G1 F2760 X-6.9 Y293.1 E33.68716
G1 X6.9 Y293.1 E34.03537
G1 X6.9 Y306.9 E34.38358
G1 X-6.9 Y306.9 E34.73179
G0 F5400 X-7.3 Y307.3
;TYPE:WALL-OUTER
G1 F1770 X-7.3 Y292.7 E35.10019
G1 X7.3 Y292.7 E35.46859
G1 X7.3 Y307.3 E35.83698
G1 X-7.3 Y307.3 E36.20538
G0 F5400 X-7.3 Y307.1
G0 X-6.51 Y306.51
;TYPE:SKIN
G1 F1500 X-6.51 Y293.49 E36.53391
G1 X6.51 Y293.49 E36.86244
G1 X6.51 Y306.51 E37.19097
G1 X-6.51 Y306.51 E37.5195
G0 F5400 X-5.928 Y306.329
G1 F1500 X-6.33 Y305.928 E37.53382
G0 F5400 X-6.33 Y305.362
G1 F1500 X-5.362 Y306.329 E37.56835
G0 F5400 X-4.797 Y306.329
G1 F1500 X-6.33 Y304.796 E37.62305
G0 F5400 X-6.33 Y304.231
G1 F1500 X-4.231 Y306.329 E37.69794
G0 F5400 X-3.665 Y306.329
G1 F1500 X-6.33 Y303.665 E37.79302
G0 F5400 X-6.33 Y303.099
G1 F1500 X-3.099 Y306.329 E37.9083
G0 F5400 X-2.534 Y306.329
G1 F1500 X-6.33 Y302.534 E38.04374
G0 F5400 X-6.33 Y301.968
G1 F1500 X-1.968 Y306.329 E38.19937
G0 F5400 X-1.402 Y306.329
G1 F1500 X-6.33 Y301.402 E38.37521
G0 F5400 X-6.33 Y300.837
G1 F1500 X-.837 Y306.329 E38.5712
G0 F5400 X-.271 Y306.329
G1 F1500 X-6.33 Y300.271 E38.7874
G0 F5400 X-6.33 Y299.705
G1 F1500 X0.294 Y306.329 E39.02377
G0 F5400 X0.859 Y306.329
G1 F1500 X-6.33 Y299.14 E39.28031
G0 F5400 X-6.33 Y298.574
G1 F1500 X1.425 Y306.329 E39.55704
G0 F5400 X1.991 Y306.329
G1 F1500 X-6.33 Y298.008 E39.85397
G0 F5400 X-6.33 Y297.443
G1 F1500 X2.556 Y306.329 E40.17106
G0 F5400 X3.122 Y306.329
G1 F1500 X-6.33 Y296.877 E40.50835
G0 F5400 X-6.33 Y296.311
G1 F1500 X3.688 Y306.329 E40.86583
G0 F5400 X4.253 Y306.329
G1 F1500 X-6.33 Y295.745 E41.2435
G0 F5400 X-6.33 Y295.18
G1 F1500 X-0.755 Y300.755 E41.44242
G1 X4.819 Y306.329 E41.64134
G0 F5400 X5.385 Y306.329
G1 F1500 X-0.473 Y300.471 E41.85036
G1 X-6.33 Y294.614 E42.05938
G0 F5400 X-6.33 Y294.048
G1 F1500 X-0.190 Y300.188 E42.27850
G1 X5.951 Y306.329 E42.49762
G0 F5400 X6.33 Y306.143
G1 F1500 X0.094 Y299.906 E42.72017
G1 X-6.143 Y293.669 E42.94273
G0 F5400 X-5.577 Y293.669
G1 F1500 X0.377 Y299.623 E43.15519
G1 X6.33 Y305.577 E43.36764
G0 F5400 X6.33 Y305.011
G1 F1500 X0.659 Y299.34 E43.57000
G1 X-5.011 Y293.669 E43.77236
G0 F5400 X-4.446 Y293.669
G1 F1500 X0.942 Y299.058 E43.96464
G1 X6.33 Y304.446 E44.15691
G0 F5400 X6.33 Y303.88
G1 F1500 X-3.88 Y293.669 E44.52127
G0 F5400 X-3.314 Y293.669
G1 F1500 X6.33 Y303.314 E44.86542
G0 F5400 X6.33 Y302.749
G1 F1500 X-2.749 Y293.669 E45.18942
G0 F5400 X-2.183 Y293.669
G1 F1500 X6.33 Y302.183 E45.49322
G0 F5400 X6.33 Y301.617
G1 F1500 X-1.617 Y293.669 E45.77682
G0 F5400 X-1.052 Y293.669
G1 F1500 X6.33 Y301.052 E46.04026
G0 F5400 X6.33 Y300.486
G1 F1500 X-.486 Y293.669 E46.2835
G0 F5400 X0.079 Y293.669
G1 F1500 X6.33 Y299.92 E46.50657
G0 F5400 X6.33 Y299.355
G1 F1500 X0.644 Y293.669 E46.70947
G0 F5400 X1.21 Y293.669
G1 F1500 X6.33 Y298.789 E46.89217
G0 F5400 X6.33 Y298.223
G1 F1500 X1.776 Y293.669 E47.05468
G0 F5400 X2.341 Y293.669
G1 F1500 X6.33 Y297.658 E47.19702
G0 F5400 X6.33 Y297.092
G1 F1500 X2.907 Y293.669 E47.31917
G0 F5400 X3.473 Y293.669
G1 F1500 X6.33 Y296.526 E47.42112
G0 F5400 X6.33 Y295.96
G1 F1500 X4.038 Y293.669 E47.50289
G0 F5400 X4.604 Y293.669
G1 F1500 X6.33 Y295.395 E47.56448
G0 F5400 X6.33 Y294.829
G1 F1500 X5.17 Y293.669 E47.60588
G0 F5400 X5.736 Y293.669
G1 F1500 X6.33 Y294.263 E47.62707
G1 X6.4 Y294.333
;MESH:NONMESH
G0 F600 X6.4 Y294.333 Z0.65
G0 F5400 X-0.215 Y300.582
G0 X-6.83 Y306.83
G0 X-6.9 Y306.9
;TIME_ELAPSED:76.538639
;LAYER:3
;TYPE:WALL-INNER
;MESH:tiao.STL
G1 F3390 X-6.9 Y293.1 E47.97528
G1 X6.9 Y293.1 E48.32349
G1 X6.9 Y306.9 E48.6717
G1 X-6.9 Y306.9 E49.01991
G0 F6300 X-7.3 Y307.3
;TYPE:WALL-OUTER
G1 F1905 X-7.3 Y292.7 E49.38831
G1 X7.3 Y292.7 E49.75671
G1 X7.3 Y307.3 E50.1251
G1 X-7.3 Y307.3 E50.4935
G0 F6300 X-7.3 Y307.1
G0 X-6.51 Y306.51
;TYPE:SKIN
G1 F1500 X-6.51 Y293.49 E50.82203
G1 X6.51 Y293.49 E51.15056
G1 X6.51 Y306.51 E51.47909
G1 X-6.51 Y306.51 E51.80762
G0 F6300 X-6.33 Y294.263
G1 F1500 X-5.736 Y293.669 E51.82881
G0 F6300 X-5.17 Y293.669
G1 F1500 X-6.33 Y294.829 E51.87021
G0 F6300 X-6.33 Y295.395
G1 F1500 X-4.604 Y293.669 E51.9318
G0 F6300 X-4.038 Y293.669
G1 F1500 X-6.33 Y295.96 E52.01357
G0 F6300 X-6.33 Y296.526
G1 F1500 X-3.473 Y293.669 E52.11552
G0 F6300 X-2.907 Y293.669
G1 F1500 X-6.33 Y297.092 E52.23767
G0 F6300 X-6.33 Y297.658
G1 F1500 X-2.341 Y293.669 E52.38001
G0 F6300 X-1.776 Y293.669
G1 F1500 X-6.33 Y298.223 E52.54252
G0 F6300 X-6.33 Y298.789
G1 F1500 X-1.21 Y293.669 E52.72522
G0 F6300 X-.644 Y293.669
G1 F1500 X-6.33 Y299.355 E52.92812
G0 F6300 X-6.33 Y299.92
G1 F1500 X-0.079 Y293.669 E53.15119
G0 F6300 X0.486 Y293.669
G1 F1500 X-6.33 Y300.486 E53.39443
G0 F6300 X-6.33 Y301.052
G1 F1500 X1.052 Y293.669 E53.65787
G0 F6300 X1.617 Y293.669
G1 F1500 X-6.33 Y301.617 E53.94147
G0 F6300 X-6.33 Y302.183
G1 F1500 X2.183 Y293.669 E54.24527
G0 F6300 X2.749 Y293.669
G1 F1500 X-6.33 Y302.749 E54.56927
G0 F6300 X-6.33 Y303.314
G1 F1500 X3.314 Y293.669 E54.91342
G0 F6300 X3.88 Y293.669
G1 F1500 X-6.33 Y303.88 E55.27778
G0 F6300 X-6.33 Y304.446
G1 F1500 X-0.942 Y299.058 E55.47006
G1 X4.446 Y293.669 E55.66233
G0 F6300 X5.011 Y293.669
G1 F1500 X-0.660 Y299.34 E55.86469
G1 X-6.33 Y305.011 E56.06705
G0 F6300 X-6.33 Y305.577
G1 F1500 X-0.377 Y299.623 E56.27951
G1 X5.577 Y293.669 E56.49196
G0 F6300 X6.143 Y293.669
G1 F1500 X-0.093 Y299.906 E56.71451
G1 X-6.33 Y306.143 E56.93707
G0 F6300 X-5.951 Y306.329
G1 F1500 X0.189 Y300.188 E57.15619
G1 X6.33 Y294.048 E57.37531
G0 F6300 X6.33 Y294.614
G1 F1500 X0.473 Y300.471 E57.58433
G1 X-5.385 Y306.329 E57.79335
G0 F6300 X-4.819 Y306.329
G1 F1500 X0.756 Y300.755 E57.99227
G1 X6.33 Y295.18 E58.19119
G0 F6300 X6.33 Y295.745
G1 F1500 X-4.253 Y306.329 E58.56886
G0 F6300 X-3.688 Y306.329
G1 F1500 X6.33 Y296.311 E58.92634
G0 F6300 X6.33 Y296.877
G1 F1500 X-3.122 Y306.329 E59.26363
G0 F6300 X-2.556 Y306.329
G1 F1500 X6.33 Y297.443 E59.58072
G0 F6300 X6.33 Y298.008
G1 F1500 X-1.991 Y306.329 E59.87765
G0 F6300 X-1.425 Y306.329
G1 F1500 X6.33 Y298.574 E60.15439
G0 F6300 X6.33 Y299.14
G1 F1500 X-.859 Y306.329 E60.41092
G0 F6300 X-.294 Y306.329
G1 F1500 X6.33 Y299.705 E60.64729
G0 F6300 X6.33 Y300.271
G1 F1500 X0.271 Y306.329 E60.86349
G0 F6300 X0.837 Y306.329
G1 F1500 X6.33 Y300.837 E61.05948
G0 F6300 X6.33 Y301.402
G1 F1500 X1.402 Y306.329 E61.23532
G0 F6300 X1.968 Y306.329
G1 F1500 X6.33 Y301.968 E61.39096
G0 F6300 X6.33 Y302.534
G1 F1500 X2.534 Y306.329 E61.5264
G0 F6300 X3.099 Y306.329
G1 F1500 X6.33 Y303.099 E61.64167
G0 F6300 X6.33 Y303.665
G1 F1500 X3.665 Y306.329 E61.73675
G0 F6300 X4.231 Y306.329
G1 F1500 X6.33 Y304.231 E61.81164
G0 F6300 X6.33 Y304.796
G1 F1500 X4.797 Y306.329 E61.86634
G0 F6300 X5.362 Y306.329
G1 F1500 X6.33 Y305.362 E61.90087
G0 F6300 X6.33 Y305.928
G1 F1500 X5.928 Y306.329 E61.91519
;MESH:NONMESH
G0 F600 X5.928 Y306.329 Z0.8
G0 F6300 X-6.83 Y306.83
G0 X-6.9 Y306.9
;TIME_ELAPSED:98.794259
;LAYER:4
;TYPE:WALL-INNER
;MESH:tiao.STL
G1 F4020 X-6.9 Y293.1 E62.2634
G1 X6.9 Y293.1 E62.61162
G1 X6.9 Y306.9 E62.95983
G1 X-6.9 Y306.9 E63.30804
G0 F7200 X-7.3 Y307.3
;TYPE:WALL-OUTER
G1 F2040 X-7.3 Y292.7 E63.67643
G1 X7.3 Y292.7 E64.04483
G1 X7.3 Y307.3 E64.41323
G1 X-7.3 Y307.3 E64.78162
G0 F7200 X-7.3 Y307.1
G0 X-6.51 Y306.51
;TYPE:SKIN
G1 F1500 X-6.51 Y293.49 E65.11015
G1 X6.51 Y293.49 E65.43868
G1 X6.51 Y306.51 E65.76721
G1 X-6.51 Y306.51 E66.09574
G0 F7200 X-5.928 Y306.329
G1 F1500 X-6.33 Y305.928 E66.11007
G0 F7200 X-6.33 Y305.362
G1 F1500 X-5.362 Y306.329 E66.14459
G0 F7200 X-4.797 Y306.329
G1 F1500 X-6.33 Y304.796 E66.1993
G0 F7200 X-6.33 Y304.231
G1 F1500 X-4.231 Y306.329 E66.27418
G0 F7200 X-3.665 Y306.329
G1 F1500 X-6.33 Y303.665 E66.36926
G0 F7200 X-6.33 Y303.099
G1 F1500 X-3.099 Y306.329 E66.48454
G0 F7200 X-2.534 Y306.329
G1 F1500 X-6.33 Y302.534 E66.61998
G0 F7200 X-6.33 Y301.968
G1 F1500 X-1.968 Y306.329 E66.77562
G0 F7200 X-1.402 Y306.329
G1 F1500 X-6.33 Y301.402 E66.95145
G0 F7200 X-6.33 Y300.837
G1 F1500 X-.837 Y306.329 E67.14745
G0 F7200 X-.271 Y306.329
G1 F1500 X-6.33 Y300.271 E67.36364
G0 F7200 X-6.33 Y299.705
G1 F1500 X0.294 Y306.329 E67.60001
G0 F7200 X0.859 Y306.329
G1 F1500 X-6.33 Y299.14 E67.85655
G0 F7200 X-6.33 Y298.574
G1 F1500 X1.425 Y306.329 E68.13328
G0 F7200 X1.991 Y306.329
G1 F1500 X-6.33 Y298.008 E68.43021
G0 F7200 X-6.33 Y297.443
G1 F1500 X2.556 Y306.329 E68.7473
G0 F7200 X3.122 Y306.329
G1 F1500 X-6.33 Y296.877 E69.08459
G0 F7200 X-6.33 Y296.311
