;FLAVOR:Marlin
;TIME:1442
;Filament used: 1.05531m
;Layer height: 0.32
;MINX:-9.8
;MINY:419.907
;MINZ:0.32
;MAXX:9.8
;MAXY:439.507
;MAXZ:19.84
G28 ;Home
G1 X0 Y300 Z15 F2000
;Generated with Cura_SteamEngine master
M82 ;absolute extrusion mode
;Sliced at: Thu 09-01-2020 17:51:00
;Prime the extruder
M104 S200 ;set temperatures
M109 S200 ;wait for temperature
G92 E0
G1 F200 E3
G92 E0
G92 E0
G92 E0
G1 F1500 E-6.5
;LAYER_COUNT:62
;LAYER:0
M107
M204 S100
M205 X0.01 Y0.01
;MESH:cura_test.stl
G0 F3600 X-0.94 Y313.91 K0
G0 X-1.88 Y327.821
G0 X-2.82 Y341.732
G0 X-3.76 Y355.643
G0 X-4.7 Y369.554
G0 X-5.64 Y383.464
G0 X-6.58 Y397.375
G0 X-7.52 Y411.286
G0 X-8.46 Y425.196
G0 X-9.4 Y439.107 Z0.32 K1
;TYPE:WALL-INNER
G1 F1500 E0
G1 F1125 X-9.4 Y429.707 E-2.74977 K0
G1 X-9.4 Y420.307 E1.00046 K1
G1 X0 Y420.307 E1.50069 K0
G1 X9.4 Y420.307 E2.00093 K1
G1 X9.4 Y429.707 E2.50116 K0
G1 X9.4 Y439.107 E3.00139 K1
G1 X0 Y439.107 E3.50162 K0
G1 X-9.4 Y439.107 E4.00186 K1
G0 F3600 X-9.8 Y439.507
;TYPE:WALL-OUTER
G1 F1125 X-9.8 Y429.707 E4.52338 K0
G1 X-9.8 Y419.907 E5.04490 K1
G1 X0 Y419.907 E5.56642 K0
G1 X9.8 Y419.907 E6.08794 K1
G1 X9.8 Y429.707 E6.60945 K0
G1 X9.8 Y439.507 E7.13097 K1
G1 X0 Y439.507 E7.65249 K0
G1 X-9.8 Y439.507 E8.17401 K1
G0 F3600 X-9.8 Y439.307
G0 X-9.01 Y438.717
;TYPE:SKIN
G1 F1125 X-9.01 Y429.707 E8.65349 K0
G1 X-9.01 Y420.697 E9.13297 K1
G1 X0 Y420.697 E9.61245 K0
G1 X9.01 Y420.697 E10.09192 K1
G1 X9.01 Y429.707 E10.57140 K0
G1 X9.01 Y438.717 E11.05088 K1
G1 X0 Y438.717 E11.53036 K0
G1 X-9.01 Y438.717 E12.00984 K1
G0 F3600 X-8.355 Y438.536
G1 F1125 X-8.83 Y438.061 E12.04558
G0 F3600 X-8.83 Y437.495
G1 F1125 X-7.789 Y438.536 E12.12393
G0 F3600 X-7.223 Y438.536
G1 F1125 X-8.83 Y436.929 E12.24487
G0 F3600 X-8.83 Y436.364
G1 F1125 X-6.658 Y438.536 E12.40833
G0 F3600 X-6.092 Y438.536
G1 F1125 X-8.83 Y435.798 E12.61439
G0 F3600 X-8.83 Y435.232
G1 F1125 X-5.526 Y438.536 E12.86305
G0 F3600 X-4.961 Y438.536
G1 F1125 X-8.83 Y434.667 E13.15423
G0 F3600 X-8.83 Y434.101
G1 F1125 X-4.395 Y438.536 E13.488
G0 F3600 X-3.829 Y438.536
G1 F1125 X-8.83 Y433.535 E13.86437
G0 F3600 X-8.83 Y432.969
G1 F1125 X-3.264 Y438.536 E14.2833
G0 F3600 X-2.698 Y438.536
G1 F1125 X-8.83 Y432.404 E14.74479
G0 F3600 X-8.83 Y431.838
G1 F1125 X-2.132 Y438.536 E15.24887
G0 F3600 X-1.566 Y438.536
G1 F1125 X-8.83 Y431.272 E15.79556
G0 F3600 X-8.83 Y430.707
G1 F1125 X-1.001 Y438.536 E16.38476
G0 F3600 X-.435 Y438.536
G1 F1125 X-8.83 Y430.141 E17.01656
G0 F3600 X-8.83 Y429.575
G1 F1125 X0.13 Y438.536 E17.69092
G0 F3600 X0.695 Y438.536
G1 F1125 X-8.83 Y429.01 E18.4078
G0 F3600 X-8.83 Y428.444
G1 F1125 X1.261 Y438.536 E19.16728
G0 F3600 X1.827 Y438.536
G1 F1125 X-3.502 Y433.207 E19.56831 K0
G1 X-8.83 Y427.878 E19.96935 K1
G0 F3600 X-8.83 Y427.313
G1 F1125 X-3.219 Y432.924 E20.39165 K0
G1 X2.392 Y438.536 E20.81395 K1
G0 F3600 X2.958 Y438.536
G1 F1125 X-2.936 Y432.642 E21.25755 K0
G1 X-8.83 Y426.747 E21.70114 K1
G0 F3600 X-8.83 Y426.181
G1 F1125 X-2.653 Y432.358 E22.16604 K0
G1 X3.524 Y438.536 E22.63093 K1
G0 F3600 X4.089 Y438.536
G1 F1125 X-2.37 Y432.076 E23.11708 K0
G1 X-8.83 Y425.616 E23.60324 K1
G0 F3600 X-8.83 Y425.05
G1 F1125 X-2.088 Y431.793 E24.11069 K0
G1 X4.655 Y438.536 E24.61814 K1
G0 F3600 X5.221 Y438.536
G1 F1125 X-1.804 Y431.51 E25.14690 K0
G1 X-8.83 Y424.484 E25.67565 K1
G0 F3600 X-8.83 Y423.919
G1 F1125 X-1.522 Y431.227 E26.22566 K0
G1 X5.786 Y438.536 E26.77567 K1
G0 F3600 X6.352 Y438.536
G1 F1125 X-1.239 Y430.945 E27.34698 K0
G1 X-8.83 Y423.353 E27.91829 K1
G0 F3600 X-8.83 Y422.787
G1 F1125 X-0.956 Y430.661 E28.51090 K0
G1 X6.918 Y438.536 E29.10351 K1
G0 F3600 X7.484 Y438.536
G1 F1125 X-0.673 Y430.379 E29.71742 K0
G1 X-8.83 Y422.221 E30.33132 K1
G0 F3600 X-8.83 Y421.656
G1 F1125 X-0.39 Y430.096 E30.96649 K0
G1 X8.049 Y438.536 E31.60166 K1
G0 F3600 X8.615 Y438.536
G1 F1125 X-0.107 Y429.813 E32.25812 K0
G1 X-8.83 Y421.09 E32.91459 K1
G0 F3600 X-8.478 Y420.876
G1 F1125 X0.176 Y429.53 E33.56590 K0
G1 X8.83 Y438.185 E34.21721 K1
G0 F3600 X8.83 Y437.619
G1 F1125 X0.458 Y429.248 E34.84725 K0
G1 X-7.913 Y420.876 E35.47728 K1
G0 F3600 X-7.347 Y420.876
G1 F1125 X0.741 Y428.965 E36.08603 K0
G1 X8.83 Y437.054 E36.69478 K1
G0 F3600 X8.83 Y436.488
G1 F1125 X1.024 Y428.682 E37.28224 K0
G1 X-6.781 Y420.876 E37.86969 K1
G0 F3600 X-6.216 Y420.876
G1 F1125 X1.307 Y428.399 E38.43586 K0
G1 X8.83 Y435.922 E39.00204 K1
G0 F3600 X8.83 Y435.357
G1 F1125 X1.59 Y428.116 E39.54694 K0
G1 X-5.65 Y420.876 E40.09183 K1
G0 F3600 X-5.084 Y420.876
G1 F1125 X1.873 Y427.833 E40.61543 K0
G1 X8.83 Y434.791 E41.13902 K1
G0 F3600 X8.83 Y434.225
G1 F1125 X2.155 Y427.55 E41.64133 K0
G1 X-4.519 Y420.876 E42.14365 K1
G0 F3600 X-3.953 Y420.876
G1 F1125 X2.438 Y427.268 E42.62469 K0
G1 X8.83 Y433.66 E43.10573 K1
G0 F3600 X8.83 Y433.094
G1 F1125 X2.721 Y426.985 E43.56547 K0
G1 X-3.387 Y420.876 E44.02520 K1
G0 F3600 X-2.822 Y420.876
G1 F1125 X3.004 Y426.702 E44.46366 K0
G1 X8.83 Y432.528 E44.90212 K1
G0 F3600 X8.83 Y431.963
G1 F1125 X3.287 Y426.419 E45.31930 K0
G1 X-2.256 Y420.876 E45.73648 K1
G0 F3600 X-1.69 Y420.876
G1 F1125 X8.83 Y431.397 E46.52825
G0 F3600 X8.83 Y430.831
G1 F1125 X-1.125 Y420.876 E47.27745
G0 F3600 X-.559 Y420.876
G1 F1125 X8.83 Y430.265 E47.98406
G0 F3600 X8.83 Y429.7
G1 F1125 X0.006 Y420.876 E48.64815
G0 F3600 X0.572 Y420.876
G1 F1125 X8.83 Y429.134 E49.26963
G0 F3600 X8.83 Y428.568
G1 F1125 X1.137 Y420.876 E49.84857
G0 F3600 X1.703 Y420.876
G1 F1125 X8.83 Y428.003 E50.38494
G0 F3600 X8.83 Y427.437
G1 F1125 X2.269 Y420.876 E50.87871
G0 F3600 X2.834 Y420.876
G1 F1125 X8.83 Y426.871 E51.32993
G0 F3600 X8.83 Y426.306
G1 F1125 X3.4 Y420.876 E51.73858
G0 F3600 X3.966 Y420.876
G1 F1125 X8.83 Y425.74 E52.10465
G0 F3600 X8.83 Y425.174
G1 F1125 X4.531 Y420.876 E52.42815
G0 F3600 X5.097 Y420.876
G1 F1125 X8.83 Y424.609 E52.70909
G0 F3600 X8.83 Y424.043
G1 F1125 X5.663 Y420.876 E52.94743
G0 F3600 X6.228 Y420.876
G1 F1125 X8.83 Y423.477 E53.14322
G0 F3600 X8.83 Y422.912
G1 F1125 X6.794 Y420.876 E53.29645
G0 F3600 X7.36 Y420.876
G1 F1125 X8.83 Y422.346 E53.40708
G0 F3600 X8.83 Y421.78
G1 F1125 X7.925 Y420.876 E53.47515
G0 F3600 X8.491 Y420.876
M104 S200
G1 F1125 X8.83 Y421.215 E53.50066
;MESH:NONMESH
G0 F600 X8.83 Y421.215 Z0.64
G0 F3600 X-0.25 Y430.126 K0
G0 X-9.33 Y439.037 K1
G0 X-9.4 Y439.107
;TIME_ELAPSED:87.519810
;LAYER:1
M106 S255
;TYPE:WALL-INNER
;MESH:cura_test.stl
G1 F1593 X-9.4 Y429.707 E54.00089 K0
G1 X-9.4 Y420.307 E54.50113 K1
G1 X0 Y420.307 E55.00136 K0
G1 X9.4 Y420.307 E55.50159 K1
G1 X9.4 Y429.707 E56.00182 K0
G1 X9.4 Y439.107 E56.50206 K1
G1 X0 Y439.107 E57.00229 K0
G1 X-9.4 Y439.107 E57.50252 K1
G0 F4500 X-9.8 Y439.507
;TYPE:WALL-OUTER
G1 F1218 X-9.8 Y429.707 E58.02404 K0
G1 X-9.8 Y419.907 E58.54556 K1
G1 X0 Y419.907 E59.06708 K0
G1 X9.8 Y419.907 E59.5886 K1
G1 X9.8 Y429.707 E60.11012 K0
G1 X9.8 Y439.507 E60.63164 K1
G1 X0 Y439.507 E61.15315 K0
G1 X-9.8 Y439.507 E61.67467 K1
G0 F4500 X-9.8 Y439.307
G0 X-9.01 Y438.717
;TYPE:SKIN
G1 F1128 X-9.01 Y429.707 E62.15415 K0
G1 X-9.01 Y420.697 E62.63363 K1
G1 X0 Y420.697 E63.11311 K0
G1 X9.01 Y420.697 E63.59259 K1
G1 X9.01 Y429.707 E64.07207 K0
G1 X9.01 Y438.717 E64.55154 K1
G1 X0 Y438.717 E65.03102 K0
G1 X-9.01 Y438.717 E65.5105 K1
G0 F4500 X-8.919 Y429.966 K0
G0 X-8.829 Y421.214 K1
G1 F1128.8 X-8.491 Y420.876 E65.53594
G0 F4500 X-7.925 Y420.876
G1 F1128.8 X-8.829 Y421.78 E65.60397
G0 F4500 X-8.829 Y422.345
G1 F1128.8 X-7.36 Y420.876 E65.71453
G0 F4500 X-6.794 Y420.876
G1 F1128.8 X-8.829 Y422.911 E65.86768
G0 F4500 X-8.829 Y423.477
G1 F1128.8 X-6.228 Y420.876 E66.06343
G0 F4500 X-5.663 Y420.876
G1 F1128.8 X-8.829 Y424.042 E66.3017
G0 F4500 X-8.829 Y424.608
G1 F1128.8 X-5.097 Y420.876 E66.58257
G0 F4500 X-4.531 Y420.876
G1 F1128.8 X-8.829 Y425.174 E66.90603
G0 F4500 X-8.829 Y425.739
G1 F1128.8 X-3.966 Y420.876 E67.27201
G0 F4500 X-3.4 Y420.876
G1 F1128.8 X-8.829 Y426.305 E67.6806
G0 F4500 X-8.829 Y426.871
G1 F1128.8 X-2.834 Y420.876 E68.13177
G0 F4500 X-2.269 Y420.876
G1 F1128.8 X-8.829 Y427.436 E68.62547
G0 F4500 X-8.829 Y428.002
G1 F1128.8 X-1.703 Y420.876 E69.16177
G0 F4500 X-1.137 Y420.876
G1 F1128.8 X-8.829 Y428.568 E69.74066
G0 F4500 X-8.829 Y429.133
G1 F1128.8 X-.572 Y420.876 E70.36208
G0 F4500 X-0.006 Y420.876
G1 F1128.8 X-8.829 Y429.699 E71.02609
G0 F4500 X-8.829 Y430.265
G1 F1128.8 X0.559 Y420.876 E71.73266
G0 F4500 X1.125 Y420.876
G1 F1128.8 X-8.829 Y430.83 E72.48179
G0 F4500 X-8.829 Y431.396
G1 F1128.8 X1.69 Y420.876 E73.27347
G0 F4500 X2.256 Y420.876
G1 F1128 X-3.287 Y426.419 E73.69062 K0
G1 X-8.829 Y431.962 E74.10776 K1
G0 F4500 X-8.829 Y432.528
G1 F1128 X-3.004 Y426.702 E74.54620 K0
G1 X2.822 Y420.876 E74.98464 K1
G0 F4500 X3.387 Y420.876
G1 F1128 X-2.721 Y426.985 E75.44434 K0
G1 X-8.829 Y433.093 E75.90404 K1
G0 F4500 X-8.829 Y433.659
G1 F1128 X-2.438 Y427.267 E76.38504 K0
G1 X3.953 Y420.876 E76.86604 K1
G0 F4500 X4.519 Y420.876
G1 F1128 X-2.155 Y427.55 E77.36834 K0
G1 X-8.829 Y434.225 E77.87064 K1
G0 F4500 X-8.829 Y434.79
G1 F1128 X-1.873 Y427.833 E78.39420 K0
G1 X5.084 Y420.876 E78.91776 K1
G0 F4500 X5.65 Y420.876
G1 F1128 X-1.590 Y428.116 E79.46261 K0
G1 X-8.829 Y435.356 E80.00747 K1
G0 F4500 X-8.829 Y435.922
G1 F1128 X-1.306 Y428.399 E80.57362 K0
G1 X6.216 Y420.876 E81.13978 K1
G0 F4500 X6.781 Y420.876
G1 F1128 X-1.024 Y428.682 E81.72719 K0
G1 X-8.829 Y436.487 E82.31461 K1
G0 F4500 X-8.829 Y437.053
G1 F1128 X-0.741 Y428.964 E82.92333 K0
G1 X7.347 Y420.876 E83.53204 K1
G0 F4500 X7.913 Y420.876
G1 F1128 X-0.458 Y429.248 E84.16205 K0
G1 X-8.829 Y437.619 E84.79207 K1
G0 F4500 X-8.829 Y438.184
G1 F1128 X-0.175 Y429.53 E85.44334 K0
G1 X8.478 Y420.876 E86.09461 K1
G0 F4500 X8.829 Y421.091
G1 F1128 X0.107 Y429.813 E86.75104 K0
G1 X-8.615 Y438.536 E87.40747 K1
G0 F4500 X-8.049 Y438.536
G1 F1128 X0.39 Y430.096 E88.04262 K0
G1 X8.829 Y421.656 E88.67777 K1
G0 F4500 X8.829 Y422.222
G1 F1128 X0.672 Y430.379 E89.29164 K0
G1 X-7.484 Y438.536 E89.90551 K1
G0 F4500 X-6.918 Y438.536
G1 F1128 X0.955 Y430.662 E90.49808 K0
G1 X8.829 Y422.788 E91.09065 K1
G0 F4500 X8.829 Y423.354
G1 F1128 X1.239 Y430.945 E91.66192 K0
G1 X-6.352 Y438.536 E92.23320 K1
G0 F4500 X-5.786 Y438.536
G1 F1128 X1.522 Y431.227 E92.78319 K0
G1 X8.829 Y423.919 E93.33318 K1
G0 F4500 X8.829 Y424.485
G1 F1128 X1.804 Y431.51 E93.86190 K0
G1 X-5.221 Y438.536 E94.39061 K1
G0 F4500 X-4.655 Y438.536
G1 F1128 X2.087 Y431.793 E94.89802 K0
G1 X8.829 Y425.051 E95.40544 K1
G0 F4500 X8.829 Y425.616
G1 F1128 X2.37 Y432.076 E95.89158 K0
G1 X-4.089 Y438.536 E96.37772 K1
G0 F4500 X-3.524 Y438.536
G1 F1128 X2.653 Y432.359 E96.84257 K0
G1 X8.829 Y426.182 E97.30743 K1
G0 F4500 X8.829 Y426.748
G1 F1128 X2.936 Y432.642 E97.75099 K0
G1 X-2.958 Y438.536 E98.19455 K1
G0 F4500 X-2.392 Y438.536
G1 F1128 X3.219 Y432.924 E98.61683 K0
G1 X8.829 Y427.313 E99.03910 K1
G0 F4500 X8.829 Y427.879
G1 F1128 X3.501 Y433.207 E99.44010 K0
G1 X-1.827 Y438.536 E99.84110 K1
G0 F4500 X-1.261 Y438.536
G1 F1128.8 X8.829 Y428.445 E100.6005
G0 F4500 X8.829 Y429.01
G1 F1128.8 X-.695 Y438.536 E101.31735
G0 F4500 X-.13 Y438.536
G1 F1128.8 X8.829 Y429.576 E101.99163
G0 F4500 X8.829 Y430.142
G1 F1128.8 X0.435 Y438.536 E102.62336
G0 F4500 X1.001 Y438.536
G1 F1128.8 X8.829 Y430.707 E103.21252
G0 F4500 X8.829 Y431.273
G1 F1128.8 X1.566 Y438.536 E103.75913
G0 F4500 X2.132 Y438.536
G1 F1128.8 X8.829 Y431.839 E104.26314
G0 F4500 X8.829 Y432.404
G1 F1128.8 X2.698 Y438.536 E104.72459
G0 F4500 X3.264 Y438.536
G1 F1128.8 X8.829 Y432.97 E105.14344
G0 F4500 X8.829 Y433.536
G1 F1128.8 X3.829 Y438.536 E105.51974
G0 F4500 X4.395 Y438.536
G1 F1128.8 X8.829 Y434.102 E105.85344
G0 F4500 X8.829 Y434.667
G1 F1128.8 X4.961 Y438.536 E106.14458
G0 F4500 X5.526 Y438.536
G1 F1128.8 X8.829 Y435.233 E106.39316
G0 F4500 X8.829 Y435.799
G1 F1128.8 X6.092 Y438.536 E106.59914
G0 F4500 X6.658 Y438.536
G1 F1128.8 X8.829 Y436.364 E106.76257
G0 F4500 X8.829 Y436.93
G1 F1128.8 X7.223 Y438.536 E106.88343
G0 F4500 X7.789 Y438.536
G1 F1128.8 X8.829 Y437.496 E106.9617
G0 F4500 X8.829 Y438.061
G1 F1128.8 X8.355 Y438.536 E106.99741
;MESH:NONMESH
G0 F600 X8.355 Y438.536 Z0.96
G0 F4500 X-0.488 Y438.786 K0
G0 X-9.33 Y439.037 K1
G0 X-9.4 Y439.107
;TIME_ELAPSED:164.991688
;LAYER:2
;TYPE:WALL-INNER
;MESH:cura_test.stl
G1 F2062 X-9.4 Y429.707 E107.49765 K0
G1 X-9.4 Y420.307 E107.99788 K1
G1 X0 Y420.307 E108.49811 K0
G1 X9.4 Y420.307 E108.99834 K1
G1 X9.4 Y429.707 E109.49858 K0
G1 X9.4 Y439.107 E109.99881 K1
G1 X0 Y439.107 E110.49904 K0
G1 X-9.4 Y439.107 E110.99927 K1
G0 F5400 X-9.8 Y439.507
;TYPE:WALL-OUTER
G1 F1312 X-9.8 Y429.707 E111.52079 K0
G1 X-9.8 Y419.907 E112.04231 K1
G1 X0 Y419.907 E112.56383 K0
G1 X9.8 Y419.907 E113.08535 K1
G1 X9.8 Y429.707 E113.60687 K0
G1 X9.8 Y439.507 E114.12839 K1
G1 X0 Y439.507 E114.64990 K0
G1 X-9.8 Y439.507 E115.17142 K1
G0 F5400 X-9.8 Y439.307
G0 X-9.01 Y438.717
;TYPE:SKIN
G1 F1132 X-9.01 Y429.707 E115.65090 K0
G1 X-9.01 Y420.697 E116.13038 K1
G1 X0 Y420.697 E116.60986 K0
G1 X9.01 Y420.697 E117.08934 K1
G1 X9.01 Y429.707 E117.56882 K0
G1 X9.01 Y438.717 E118.04829 K1
G1 X0 Y438.717 E118.52777 K0
G1 X-9.01 Y438.717 E119.00725 K1
G0 F5400 X-8.355 Y438.536
G1 F1132.5 X-8.83 Y438.061 E119.043
G0 F5400 X-8.83 Y437.495
G1 F1132.5 X-7.789 Y438.536 E119.12134
G0 F5400 X-7.223 Y438.536
G1 F1132.5 X-8.83 Y436.929 E119.24228
G0 F5400 X-8.83 Y436.364
G1 F1132.5 X-6.658 Y438.536 E119.40575
G0 F5400 X-6.092 Y438.536
G1 F1132.5 X-8.83 Y435.798 E119.61181
G0 F5400 X-8.83 Y435.232
G1 F1132.5 X-5.526 Y438.536 E119.86046
G0 F5400 X-4.961 Y438.536
G1 F1132.5 X-8.83 Y434.667 E120.15164
G0 F5400 X-8.83 Y434.101
G1 F1132.5 X-4.395 Y438.536 E120.48541
G0 F5400 X-3.829 Y438.536
G1 F1132.5 X-8.83 Y433.535 E120.86178
G0 F5400 X-8.83 Y432.969
G1 F1132.5 X-3.264 Y438.536 E121.28071
G0 F5400 X-2.698 Y438.536
G1 F1132.5 X-8.83 Y432.404 E121.7422
G0 F5400 X-8.83 Y431.838
G1 F1132.5 X-2.132 Y438.536 E122.24629
G0 F5400 X-1.566 Y438.536
G1 F1132.5 X-8.83 Y431.272 E122.79297
G0 F5400 X-8.83 Y430.707
G1 F1132.5 X-1.001 Y438.536 E123.38217
G0 F5400 X-.435 Y438.536
G1 F1132.5 X-8.83 Y430.141 E124.01397
G0 F5400 X-8.83 Y429.575
G1 F1132.5 X0.13 Y438.536 E124.68833
G0 F5400 X0.695 Y438.536
G1 F1132.5 X-8.83 Y429.01 E125.40521
G0 F5400 X-8.83 Y428.444
G1 F1132.5 X1.261 Y438.536 E126.16469
G0 F5400 X1.827 Y438.536
G1 F1132 X-3.502 Y433.207 E126.56572 K0
G1 X-8.83 Y427.878 E126.96676 K1
G0 F5400 X-8.83 Y427.313
G1 F1132 X-3.219 Y432.924 E127.38906 K0
G1 X2.392 Y438.536 E127.81136 K1
G0 F5400 X2.958 Y438.536
G1 F1132 X-2.936 Y432.642 E128.25495 K0
G1 X-8.83 Y426.747 E128.69855 K1
G0 F5400 X-8.83 Y426.181
G1 F1132 X-2.653 Y432.358 E129.16345 K0
G1 X3.524 Y438.536 E129.62834 K1
G0 F5400 X4.089 Y438.536
G1 F1132 X-2.37 Y432.076 E130.11450 K0
G1 X-8.83 Y425.616 E130.60065 K1
G0 F5400 X-8.83 Y425.05
G1 F1132 X-2.088 Y431.793 E131.10810 K0
G1 X4.655 Y438.536 E131.61556 K1
G0 F5400 X5.221 Y438.536
G1 F1132 X-1.804 Y431.51 E132.14431 K0
G1 X-8.83 Y424.484 E132.67306 K1
G0 F5400 X-8.83 Y423.919
G1 F1132 X-1.522 Y431.227 E133.22307 K0
G1 X5.786 Y438.536 E133.77308 K1
G0 F5400 X6.352 Y438.536
G1 F1132 X-1.239 Y430.945 E134.34439 K0
G1 X-8.83 Y423.353 E134.91571 K1
G0 F5400 X-8.83 Y422.787
G1 F1132 X-0.956 Y430.661 E135.50831 K0
G1 X6.918 Y438.536 E136.10092 K1
G0 F5400 X7.484 Y438.536
G1 F1132 X-0.673 Y430.379 E136.71483 K0
G1 X-8.83 Y422.221 E137.32874 K1
G0 F5400 X-8.83 Y421.656
G1 F1132 X-0.39 Y430.096 E137.96391 K0
G1 X8.049 Y438.536 E138.59907 K1
G0 F5400 X8.615 Y438.536
G1 F1132 X-0.107 Y429.813 E139.25554 K0
G1 X-8.83 Y421.09 E139.91201 K1
G0 F5400 X-8.478 Y420.876
G1 F1132 X0.176 Y429.53 E140.56332 K0
G1 X8.83 Y438.185 E141.21463 K1
G0 F5400 X8.83 Y437.619
G1 F1132 X0.458 Y429.248 E141.84466 K0
G1 X-7.913 Y420.876 E142.47469 K1
G0 F5400 X-7.347 Y420.876
G1 F1132 X0.741 Y428.965 E143.08344 K0
G1 X8.83 Y437.054 E143.69219 K1
G0 F5400 X8.83 Y436.488
G1 F1132 X1.024 Y428.682 E144.27965 K0
G1 X-6.781 Y420.876 E144.86710 K1
G0 F5400 X-6.216 Y420.876
G1 F1132 X1.307 Y428.399 E145.43327 K0
G1 X8.83 Y435.922 E145.99945 K1
G0 F5400 X8.83 Y435.357
G1 F1132 X1.59 Y428.116 E146.54434 K0
G1 X-5.65 Y420.876 E147.08924 K1
G0 F5400 X-5.084 Y420.876
