;FLAVOR:Marlin
;TIME:1169
;Filament used: 1.06518m
;Layer height: 0.15
;MINX:-9.8
;MINY:280.2
;MINZ:0.2
;MAXX:9.8
;MAXY:299.8
;MAXZ:20
G28 ;Home
G1 X0 Y300 Z15 F2000
;Generated with Cura_SteamEngine master
M104 S205
M105
M109 S205
M82 ;absolute extrusion mode
;Prime the extruder
G92 E0
G1 F200 E3
G92 E0
G92 E0
G92 E0
G1 F1500 E-6.5
;LAYER_COUNT:133
;LAYER:0
M107
M205 X20 Y20
G1 F600 Z1.2
;MESH:cura_test.stl
G0 F3600 X-9.4 Y299.4 Z1.2
;TYPE:WALL-INNER
G1 F600 Z0.2
G1 F1500 E0
G1 X-9.4 Y290 E-2.93375
G1 X-9.4 Y280.6 E0.6325
G1 X0 Y280.6 E0.94875
G1 X9.4 Y280.6 E1.265
G1 X9.4 Y290 E1.58125
G1 X9.4 Y299.4 E1.8975
G1 X0 Y299.4 E2.21375
G1 X-9.4 Y299.4 E2.52999
G0 F3600 X-9.8 Y299.8
;TYPE:WALL-OUTER
G1 F1500 X-9.8 Y290 E2.85970
G1 X-9.8 Y280.2 E3.18941
G1 X0 Y280.2 E3.51912
G1 X9.8 Y280.2 E3.84882
G1 X9.8 Y290 E4.17853
G1 X9.8 Y299.8 E4.50823
G1 X0 Y299.8 E4.83794
G1 X-9.8 Y299.8 E5.16765
G0 F3600 X-9.8 Y299.6
G0 X-9.01 Y299.01
;TYPE:SKIN
G1 F1500 X-9.01 Y290 E5.47077
G1 X-9.01 Y280.99 E5.77390
G1 X0 Y280.99 E6.07703
G1 X9.01 Y280.99 E6.38016
G1 X9.01 Y290 E6.68329
G1 X9.01 Y299.01 E6.98642
G1 X0 Y299.01 E7.28955
G1 X-9.01 Y299.01 E7.59267
G0 F3600 X-8.338 Y298.828
G1 F1500 X-8.83 Y298.336 E7.61608
G0 F3600 X-8.83 Y297.771
G1 F1500 X-7.772 Y298.828 E7.6664
G0 F3600 X-7.206 Y298.828
G1 F1500 X-8.83 Y297.205 E7.74364
G0 F3600 X-8.83 Y296.639
G1 F1500 X-6.641 Y298.828 E7.84779
G0 F3600 X-6.075 Y298.828
G1 F1500 X-8.83 Y296.074 E7.97885
G0 F3600 X-8.83 Y295.508
G1 F1500 X-5.509 Y298.828 E8.13684
G0 F3600 X-4.944 Y298.828
G1 F1500 X-8.83 Y294.942 E8.32173
G0 F3600 X-8.83 Y294.377
G1 F1500 X-4.378 Y298.828 E8.53353
G0 F3600 X-3.812 Y298.828
G1 F1500 X-8.83 Y293.811 E8.77225
G0 F3600 X-8.83 Y293.245
G1 F1500 X-3.247 Y298.828 E9.03789
G0 F3600 X-2.681 Y298.828
G1 F1500 X-8.83 Y292.679 E9.33045
G0 F3600 X-8.83 Y292.114
G1 F1500 X-2.115 Y298.828 E9.64992
G0 F3600 X-1.549 Y298.828
G1 F1500 X-8.83 Y291.548 E9.99632
G0 F3600 X-8.83 Y290.982
G1 F1500 X-.984 Y298.828 E10.36963
G0 F3600 X-.418 Y298.828
G1 F1500 X-8.83 Y290.417 E10.76984
G0 F3600 X-8.83 Y289.851
G1 F1500 X0.147 Y298.828 E11.19696
G0 F3600 X0.712 Y298.828
G1 F1500 X-8.83 Y289.285 E11.65098
G0 F3600 X-8.83 Y288.72
G1 F1500 X1.278 Y298.828 E12.13191
G0 F3600 X1.844 Y298.828
G1 F1500 X-3.493 Y293.491 E12.38584
G1 X-8.83 Y288.154 E12.63977
G0 F3600 X-8.83 Y287.588
G1 F1500 X-3.21 Y293.208 E12.90715
G1 X2.409 Y298.828 E13.17454
G0 F3600 X2.975 Y298.828
G1 F1500 X-2.927 Y292.925 E13.45538
G1 X-8.83 Y287.023 E13.73621
G0 F3600 X-8.83 Y286.457
G1 F1500 X-2.644 Y292.642 E14.03051
G1 X3.541 Y298.828 E14.32481
G0 F3600 X4.106 Y298.828
G1 F1500 X-2.362 Y292.360 E14.63256
G1 X-8.83 Y285.891 E14.94032
G0 F3600 X-8.83 Y285.326
G1 F1500 X-2.079 Y292.077 E15.26152
G1 X4.672 Y298.828 E15.58273
G0 F3600 X5.238 Y298.828
G1 F1500 X-1.796 Y291.794 E15.91740
G1 X-8.83 Y284.76 E16.25208
G0 F3600 X-8.83 Y284.194
G1 F1500 X-1.514 Y291.511 E16.60020
G1 X5.803 Y298.828 E16.94833
G0 F3600 X6.369 Y298.828
G1 F1500 X-1.23 Y291.228 E17.30991
G1 X-8.83 Y283.629 E17.67148
G0 F3600 X-8.83 Y283.063
G1 F1500 X-0.947 Y290.945 E18.04652
G1 X6.935 Y298.828 E18.42157
G0 F3600 X7.5 Y298.828
G1 F1500 X-0.665 Y290.663 E18.81007
G1 X-8.83 Y282.497 E19.19856
G0 F3600 X-8.83 Y281.931
G1 F1500 X-0.382 Y290.380 E19.60052
G1 X8.066 Y298.828 E20.00248
G0 F3600 X8.632 Y298.828
G1 F1500 X-0.099 Y290.097 E20.41790
G1 X-8.83 Y281.366 E20.83331
G0 F3600 X-8.461 Y281.168
G1 F1500 X0.184 Y289.815 E21.24468
G1 X8.83 Y298.461 E21.65604
G0 F3600 X8.83 Y297.895
G1 F1500 X0.467 Y289.531 E22.05396
G1 X-7.896 Y281.168 E22.45188
G0 F3600 X-7.33 Y281.168
G1 F1500 X0.75 Y289.249 E22.83633
G1 X8.83 Y297.329 E23.22078
G0 F3600 X8.83 Y296.764
G1 F1500 X1.033 Y288.966 E23.59178
G1 X-6.764 Y281.168 E23.96278
G0 F3600 X-6.199 Y281.168
G1 F1500 X1.316 Y288.683 E24.32032
G1 X8.83 Y296.198 E24.67787
G0 F3600 X8.83 Y295.632
G1 F1500 X1.598 Y288.4 E25.02195
G1 X-5.633 Y281.168 E25.36603
G0 F3600 X-5.067 Y281.168
G1 F1500 X1.881 Y288.118 E25.69665
G1 X8.83 Y295.067 E26.02728
G0 F3600 X8.83 Y294.501
G1 F1500 X2.164 Y287.834 E26.34445
G1 X-4.502 Y281.168 E26.66163
G0 F3600 X-3.936 Y281.168
G1 F1500 X2.447 Y287.552 E26.96534
G1 X8.83 Y293.935 E27.26905
G0 F3600 X8.83 Y293.37
G1 F1500 X2.73 Y287.269 E27.55931
G1 X-3.37 Y281.168 E27.84956
G0 F3600 X-2.805 Y281.168
G1 F1500 X3.012 Y286.986 E28.12636
G1 X8.83 Y292.804 E28.40317
G0 F3600 X8.83 Y292.238
G1 F1500 X3.296 Y286.703 E28.66651
G1 X-2.239 Y281.168 E28.92985
G0 F3600 X-1.673 Y281.168
G1 F1500 X8.83 Y291.673 E29.42962
G0 F3600 X8.83 Y291.107
G1 F1500 X-1.108 Y281.168 E29.90248
G0 F3600 X-.542 Y281.168
G1 F1500 X8.83 Y290.541 E30.34842
G0 F3600 X8.83 Y289.976
G1 F1500 X0.023 Y281.168 E30.76747
G0 F3600 X0.589 Y281.168
G1 F1500 X8.83 Y289.41 E31.1596
G0 F3600 X8.83 Y288.844
G1 F1500 X1.154 Y281.168 E31.52481
G0 F3600 X1.72 Y281.168
G1 F1500 X8.83 Y288.278 E31.8631
G0 F3600 X8.83 Y287.713
G1 F1500 X2.286 Y281.168 E32.17448
G0 F3600 X2.851 Y281.168
G1 F1500 X8.83 Y287.147 E32.45896
G0 F3600 X8.83 Y286.581
G1 F1500 X3.417 Y281.168 E32.71651
G0 F3600 X3.983 Y281.168
G1 F1500 X8.83 Y286.016 E32.94715
G0 F3600 X8.83 Y285.45
G1 F1500 X4.548 Y281.168 E33.15088
G0 F3600 X5.114 Y281.168
G1 F1500 X8.83 Y284.884 E33.32768
G0 F3600 X8.83 Y284.319
G1 F1500 X5.68 Y281.168 E33.47758
G0 F3600 X6.245 Y281.168
G1 F1500 X8.83 Y283.753 E33.60057
G0 F3600 X8.83 Y283.187
G1 F1500 X6.811 Y281.168 E33.69664
G0 F3600 X7.377 Y281.168
G1 F1500 X8.83 Y282.622 E33.76579
G0 F3600 X8.83 Y282.056
G1 F1500 X7.942 Y281.168 E33.80804
G0 F3600 X8.508 Y281.168
G1 F1500 X8.83 Y281.49 E33.82336
;MESH:NONMESH
G0 F600 X8.83 Y281.49 Z0.35
G0 F3600 X-0.25 Y290.41
G0 X-9.33 Y299.33
G0 X-9.4 Y299.4
;TIME_ELAPSED:48.674501
;LAYER:1
M106 S255
;TYPE:WALL-INNER
;MESH:cura_test.stl
G1 F2130 X-9.4 Y290 E34.06055
G1 X-9.4 Y280.6 E34.29774
G1 X0 Y280.6 E34.53493
G1 X9.4 Y280.6 E34.77211
G1 X9.4 Y290 E35.00929
G1 X9.4 Y299.4 E35.24648
G1 X0 Y299.4 E35.48367
G1 X-9.4 Y299.4 E35.72086
G0 F4500 X-9.8 Y299.8
;TYPE:WALL-OUTER
G1 F1635 X-9.8 Y290 E35.96814
G1 X-9.8 Y280.2 E36.21542
G1 X0 Y280.2 E36.46270
G1 X9.8 Y280.2 E36.70998
G1 X9.8 Y290 E36.95726
G1 X9.8 Y299.8 E37.20454
G1 X0 Y299.8 E37.45182
G1 X-9.8 Y299.8 E37.6991
G0 F4500 X-9.8 Y299.6
G0 X-9.01 Y299.01
;TYPE:SKIN
G1 F1500 X-9.01 Y290 E37.92645
G1 X-9.01 Y280.99 E38.15379
G1 X0 Y280.99 E38.38114
G1 X9.01 Y280.99 E38.60848
G1 X9.01 Y290 E38.83583
G1 X9.01 Y299.01 E39.06318
G1 X0 Y299.01 E39.29053
G1 X-9.01 Y299.01 E39.51787
G0 F4500 X-8.919 Y290.25
G0 X-8.829 Y281.49
G1 F1500 X-8.508 Y281.168 E39.52934
G0 F4500 X-7.942 Y281.168
G1 F1500 X-8.829 Y282.055 E39.56099
G0 F4500 X-8.829 Y282.621
G1 F1500 X-7.377 Y281.168 E39.61282
G0 F4500 X-6.811 Y281.168
G1 F1500 X-8.829 Y283.187 E39.68485
G0 F4500 X-8.829 Y283.752
G1 F1500 X-6.245 Y281.168 E39.77706
G0 F4500 X-5.68 Y281.168
G1 F1500 X-8.829 Y284.318 E39.88945
G0 F4500 X-8.829 Y284.884
G1 F1500 X-5.114 Y281.168 E40.02203
G0 F4500 X-4.548 Y281.168
G1 F1500 X-8.829 Y285.449 E40.1748
G0 F4500 X-8.829 Y286.015
G1 F1500 X-3.983 Y281.168 E40.34774
G0 F4500 X-3.417 Y281.168
G1 F1500 X-8.829 Y286.581 E40.54088
G0 F4500 X-8.829 Y287.146
G1 F1500 X-2.851 Y281.168 E40.75421
G0 F4500 X-2.286 Y281.168
G1 F1500 X-8.829 Y287.712 E40.98771
G0 F4500 X-8.829 Y288.278
G1 F1500 X-1.72 Y281.168 E41.2414
G0 F4500 X-1.154 Y281.168
G1 F1500 X-8.829 Y288.843 E41.51528
G0 F4500 X-8.829 Y289.409
G1 F1500 X-.589 Y281.168 E41.80934
G0 F4500 X-0.023 Y281.168
G1 F1500 X-8.829 Y289.975 E42.12359
G0 F4500 X-8.829 Y290.54
G1 F1500 X0.542 Y281.168 E42.45801
G0 F4500 X1.108 Y281.168
G1 F1500 X-8.829 Y291.106 E42.81262
G0 F4500 X-8.829 Y291.672
G1 F1500 X1.673 Y281.168 E43.18741
G0 F4500 X2.239 Y281.168
G1 F1500 X-3.295 Y286.703 E43.38491
G1 X-8.829 Y292.238 E43.58241
G0 F4500 X-8.829 Y292.803
G1 F1500 X-3.012 Y286.986 E43.78999
G1 X2.805 Y281.168 E43.99757
G0 F4500 X3.37 Y281.168
G1 F1500 X-2.730 Y287.269 E44.21525
G1 X-8.829 Y293.369 E44.43292
G0 F4500 X-8.829 Y293.935
G1 F1500 X-2.447 Y287.552 E44.66070
G1 X3.936 Y281.168 E44.88847
G0 F4500 X4.502 Y281.168
G1 F1500 X-2.163 Y287.834 E45.12633
G1 X-8.829 Y294.5 E45.36420
G0 F4500 X-8.829 Y295.066
G1 F1500 X-1.881 Y288.117 E45.61215
G1 X5.067 Y281.168 E45.86010
G0 F4500 X5.633 Y281.168
G1 F1500 X-1.598 Y288.4 E46.11815
G1 X-8.829 Y295.632 E46.37620
G0 F4500 X-8.829 Y296.197
G1 F1500 X-1.315 Y288.683 E46.64435
G1 X6.199 Y281.168 E46.91249
G0 F4500 X6.764 Y281.168
G1 F1500 X-1.032 Y288.966 E47.19072
G1 X-8.829 Y296.763 E47.46895
G0 F4500 X-8.829 Y297.329
G1 F1500 X-0.750 Y289.249 E47.75728
G1 X7.33 Y281.168 E48.04561
G0 F4500 X7.896 Y281.168
G1 F1500 X-0.467 Y289.531 E48.34403
G1 X-8.829 Y297.894 E48.64245
G0 F4500 X-8.829 Y298.46
G1 F1500 X-0.184 Y289.814 E48.95096
G1 X8.461 Y281.168 E49.25947
G0 F4500 X8.829 Y281.366
G1 F1500 X0.099 Y290.097 E49.57102
G1 X-8.632 Y298.828 E49.88257
G0 F4500 X-8.066 Y298.828
G1 F1500 X0.382 Y290.38 E50.18402
G1 X8.829 Y281.932 E50.48547
G0 F4500 X8.829 Y282.498
G1 F1500 X0.665 Y290.663 E50.77683
G1 X-7.5 Y298.828 E51.06818
G0 F4500 X-6.935 Y298.828
G1 F1500 X0.947 Y290.946 E51.34945
G1 X8.829 Y283.064 E51.63071
G0 F4500 X8.829 Y283.629
G1 F1500 X1.23 Y291.228 E51.90189
G1 X-6.369 Y298.828 E52.17306
G0 F4500 X-5.803 Y298.828
G1 F1500 X1.513 Y291.511 E52.43413
G1 X8.829 Y284.195 E52.69521
G0 F4500 X8.829 Y284.761
G1 F1500 X1.796 Y291.794 E52.94620
G1 X-5.238 Y298.828 E53.19718
G0 F4500 X-4.672 Y298.828
G1 F1500 X2.079 Y292.077 E53.43807
G1 X8.829 Y285.326 E53.67897
G0 F4500 X8.829 Y285.892
G1 F1500 X2.362 Y292.36 E53.90977
G1 X-4.106 Y298.828 E54.14057
G0 F4500 X-3.541 Y298.828
G1 F1500 X2.644 Y292.643 E54.36127
G1 X8.829 Y286.458 E54.58198
G0 F4500 X8.829 Y287.023
G1 F1500 X2.927 Y292.925 E54.79260
G1 X-2.975 Y298.828 E55.00322
G0 F4500 X-2.409 Y298.828
G1 F1500 X3.21 Y293.208 E55.20374
G1 X8.829 Y287.589 E55.40426
G0 F4500 X8.829 Y288.155
G1 F1500 X3.493 Y293.491 E55.59469
G1 X-1.844 Y298.828 E55.78512
G0 F4500 X-1.278 Y298.828
G1 F1500 X8.829 Y288.72 E56.1458
G0 F4500 X8.829 Y289.286
G1 F1500 X-.712 Y298.828 E56.48628
G0 F4500 X-.147 Y298.828
G1 F1500 X8.829 Y289.852 E56.80658
G0 F4500 X8.829 Y290.417
G1 F1500 X0.418 Y298.828 E57.10672
G0 F4500 X0.984 Y298.828
G1 F1500 X8.829 Y290.983 E57.38667
G0 F4500 X8.829 Y291.549
G1 F1500 X1.549 Y298.828 E57.64643
G0 F4500 X2.115 Y298.828
G1 F1500 X8.829 Y292.115 E57.886
G0 F4500 X8.829 Y292.68
G1 F1500 X2.681 Y298.828 E58.10539
G0 F4500 X3.247 Y298.828
G1 F1500 X8.829 Y293.246 E58.30458
G0 F4500 X8.829 Y293.812
G1 F1500 X3.812 Y298.828 E58.48359
G0 F4500 X4.378 Y298.828
G1 F1500 X8.829 Y294.377 E58.64242
G0 F4500 X8.829 Y294.943
G1 F1500 X4.944 Y298.828 E58.78105
G0 F4500 X5.509 Y298.828
G1 F1500 X8.829 Y295.509 E58.8995
G0 F4500 X8.829 Y296.074
G1 F1500 X6.075 Y298.828 E58.99778
G0 F4500 X6.641 Y298.828
G1 F1500 X8.829 Y296.64 E59.07586
G0 F4500 X8.829 Y297.206
G1 F1500 X7.206 Y298.828 E59.13375
G0 F4500 X7.772 Y298.828
G1 F1500 X8.829 Y297.771 E59.17147
G0 F4500 X8.829 Y298.337
G1 F1500 X8.338 Y298.828 E59.18899
;MESH:NONMESH
G0 F600 X8.338 Y298.828 Z0.5
G0 F4500 X-0.496 Y299.079
G0 X-9.33 Y299.33
G0 X-9.4 Y299.4
;TIME_ELAPSED:89.593463
;LAYER:2
;TYPE:WALL-INNER
;MESH:cura_test.stl
G1 F2760 X-9.4 Y290 E59.42618
G1 X-9.4 Y280.6 E59.66337
G1 X0 Y280.6 E59.90055
G1 X9.4 Y280.6 E60.13774
G1 X9.4 Y290 E60.37493
G1 X9.4 Y299.4 E60.61212
G1 X0 Y299.4 E60.84931
G1 X-9.4 Y299.4 E61.08649
G0 F5400 X-9.8 Y299.8
;TYPE:WALL-OUTER
G1 F1770 X-9.8 Y290 E61.33377
G1 X-9.8 Y280.2 E61.58105
G1 X0 Y280.2 E61.82833
G1 X9.8 Y280.2 E62.07561
G1 X9.8 Y290 E62.32289
G1 X9.8 Y299.8 E62.57017
G1 X0 Y299.8 E62.81745
G1 X-9.8 Y299.8 E63.06473
G0 F5400 X-9.8 Y299.6
G0 X-9.01 Y299.01
;TYPE:SKIN
G1 F1500 X-9.01 Y290 E63.29207
G1 X-9.01 Y280.99 E63.51942
G1 X0 Y280.99 E63.74676
G1 X9.01 Y280.99 E63.97411
G1 X9.01 Y290 E64.20146
G1 X9.01 Y299.01 E64.42881
G1 X0 Y299.01 E64.65615
G1 X-9.01 Y299.01 E64.8835
G0 F5400 X-8.338 Y298.828
G1 F1500 X-8.83 Y298.336 E64.90106
G0 F5400 X-8.83 Y297.771
G1 F1500 X-7.772 Y298.828 E64.93879
G0 F5400 X-7.206 Y298.828
G1 F1500 X-8.83 Y297.205 E64.99673
G0 F5400 X-8.83 Y296.639
G1 F1500 X-6.641 Y298.828 E65.07484
G0 F5400 X-6.075 Y298.828
G1 F1500 X-8.83 Y296.074 E65.17313
G0 F5400 X-8.83 Y295.508
G1 F1500 X-5.509 Y298.828 E65.29162
G0 F5400 X-4.944 Y298.828
G1 F1500 X-8.83 Y294.942 E65.43029
G0 F5400 X-8.83 Y294.377
G1 F1500 X-4.378 Y298.828 E65.58914
G0 F5400 X-3.812 Y298.828
G1 F1500 X-8.83 Y293.811 E65.76819
G0 F5400 X-8.83 Y293.245
G1 F1500 X-3.247 Y298.828 E65.96741
G0 F5400 X-2.681 Y298.828
G1 F1500 X-8.83 Y292.679 E66.18683
G0 F5400 X-8.83 Y292.114
G1 F1500 X-2.115 Y298.828 E66.42644
G0 F5400 X-1.549 Y298.828
G1 F1500 X-8.83 Y291.548 E66.68624
G0 F5400 X-8.83 Y290.982
G1 F1500 X-.984 Y298.828 E66.96622
G0 F5400 X-.418 Y298.828
G1 F1500 X-8.83 Y290.417 E67.26638
G0 F5400 X-8.83 Y289.851
G1 F1500 X0.147 Y298.828 E67.58671
G0 F5400 X0.712 Y298.828
G1 F1500 X-8.83 Y289.285 E67.92723
G0 F5400 X-8.83 Y288.72
G1 F1500 X1.278 Y298.828 E68.28793
G0 F5400 X1.844 Y298.828
G1 F1500 X-3.493 Y293.491 E68.47837
G1 X-8.83 Y288.154 E68.66882
G0 F5400 X-8.83 Y287.588
G1 F1500 X-3.21 Y293.208 E68.86936
G1 X2.409 Y298.828 E69.06990
G0 F5400 X2.975 Y298.828
G1 F1500 X-2.927 Y292.925 E69.28053
G1 X-8.83 Y287.023 E69.49115
G0 F5400 X-8.83 Y286.457
G1 F1500 X-2.644 Y292.642 E69.71187
G1 X3.541 Y298.828 E69.93260
G0 F5400 X4.106 Y298.828
G1 F1500 X-2.362 Y292.360 E70.16341
G1 X-8.83 Y285.891 E70.39423
G0 F5400 X-8.83 Y285.326
G1 F1500 X-2.079 Y292.077 E70.63513
G1 X4.672 Y298.828 E70.87604
G0 F5400 X5.238 Y298.828
G1 F1500 X-1.796 Y291.794 E71.12705
G1 X-8.83 Y284.76 E71.37805
G0 F5400 X-8.83 Y284.194
G1 F1500 X-1.514 Y291.511 E71.63914
G1 X5.803 Y298.828 E71.90024
G0 F5400 X6.369 Y298.828
G1 F1500 X-1.23 Y291.228 E72.17142
G1 X-8.83 Y283.629 E72.44261
G0 F5400 X-8.83 Y283.063
G1 F1500 X-0.947 Y290.945 E72.72389
G1 X6.935 Y298.828 E73.00517
G0 F5400 X7.5 Y298.828
G1 F1500 X-0.665 Y290.663 E73.29654
G1 X-8.83 Y282.497 E73.58791
G0 F5400 X-8.83 Y281.931
G1 F1500 X-0.382 Y290.380 E73.88938
G1 X8.066 Y298.828 E74.19085
G0 F5400 X8.632 Y298.828
G1 F1500 X-0.099 Y290.097 E74.50241
G1 X-8.83 Y281.366 E74.81397
G0 F5400 X-8.461 Y281.168
G1 F1500 X0.184 Y289.815 E75.12250
G1 X8.83 Y298.461 E75.43103
G0 F5400 X8.83 Y297.895
G1 F1500 X0.467 Y289.531 E75.72947
G1 X-7.896 Y281.168 E76.02790
G0 F5400 X-7.33 Y281.168
G1 F1500 X0.75 Y289.249 E76.31624
G1 X8.83 Y297.329 E76.60458
G0 F5400 X8.83 Y296.764
G1 F1500 X1.033 Y288.966 E76.88283
G1 X-6.764 Y281.168 E77.16108
G0 F5400 X-6.199 Y281.168
G1 F1500 X1.316 Y288.683 E77.42924
G1 X8.83 Y296.198 E77.69739
G0 F5400 X8.83 Y295.632
G1 F1500 X1.598 Y288.4 E77.95546
G1 X-5.633 Y281.168 E78.21352
G0 F5400 X-5.067 Y281.168
G1 F1500 X1.881 Y288.118 E78.46149
G1 X8.83 Y295.067 E78.70946
G0 F5400 X8.83 Y294.501
G1 F1500 X2.164 Y287.834 E78.94734
G1 X-4.502 Y281.168 E79.18522
G0 F5400 X-3.936 Y281.168
G1 F1500 X2.447 Y287.552 E79.41300
G1 X8.83 Y293.935 E79.64078
G0 F5400 X8.83 Y293.37
G1 F1500 X2.73 Y287.269 E79.85847
G1 X-3.37 Y281.168 E80.07617
G0 F5400 X-2.805 Y281.168
G1 F1500 X3.012 Y286.986 E80.28377
G1 X8.83 Y292.804 E80.49137
G0 F5400 X8.83 Y292.238
G1 F1500 X3.296 Y286.703 E80.68887
G1 X-2.239 Y281.168 E80.88638
G0 F5400 X-1.673 Y281.168
G1 F1500 X8.83 Y291.673 E81.26121
G0 F5400 X8.83 Y291.107
G1 F1500 X-1.108 Y281.168 E81.61586
G0 F5400 X-.542 Y281.168
G1 F1500 X8.83 Y290.541 E81.95031
G0 F5400 X8.83 Y289.976
G1 F1500 X0.023 Y281.168 E82.2646
G0 F5400 X0.589 Y281.168
G1 F1500 X8.83 Y289.41 E82.55869
G0 F5400 X8.83 Y288.844
G1 F1500 X1.154 Y281.168 E82.83261
G0 F5400 X1.72 Y281.168
G1 F1500 X8.83 Y288.278 E83.08632
G0 F5400 X8.83 Y287.713
G1 F1500 X2.286 Y281.168 E83.31986
G0 F5400 X2.851 Y281.168
G1 F1500 X8.83 Y287.147 E83.53321
G0 F5400 X8.83 Y286.581
G1 F1500 X3.417 Y281.168 E83.72637
G0 F5400 X3.983 Y281.168
G1 F1500 X8.83 Y286.016 E83.89935
G0 F5400 X8.83 Y285.45
G1 F1500 X4.548 Y281.168 E84.05215
G0 F5400 X5.114 Y281.168
G1 F1500 X8.83 Y284.884 E84.18476
G0 F5400 X8.83 Y284.319
G1 F1500 X5.68 Y281.168 E84.29718
