;FLAVOR:Marlin
;TIME:1440
;Filament used: 1.05532m
;Layer height: 0.32
;MINX:-9.8
;MINY:280.2
;MINZ:0.32
;MAXX:9.8
;MAXY:299.8
;MAXZ:19.84
G28 ;Home
G1 X0 Y300 Z15 F2000
;Generated with Cura_SteamEngine master
M82 ;absolute extrusion mode
;Sliced at: Tue 07-01-2020 23:20:59
;Prime the extruder
M104 S200 ;set temperatures
M109 S200 ;wait for temperature
G92 E0
G1 F200 E3
G92 E0
G92 E0
G92 E0
G1 F1500 E-6.5
;LAYER_COUNT:62
;LAYER:0
M107
M204 S100
M205 X0.01 Y0.01
;MESH:cura_test.stl
G0 F3600 X-9.4 Y299.4 Z0.32
;TYPE:WALL-INNER
G1 F1500 E0
G1 F1125 X-9.4 Y290 E-2.74977 K0
G1 X-9.4 Y280.6 E1.00046 K1
G1 X0 Y280.6 E1.50069 K0
G1 X9.4 Y280.6 E2.00093 K1
G1 X9.4 Y290 E2.50116 K0
G1 X9.4 Y299.4 E3.00139 K1
G1 X0 Y299.4 E3.50162 K0
G1 X-9.4 Y299.4 E4.00186 K1
G0 F3600 X-9.8 Y299.8
;TYPE:WALL-OUTER
G1 F1125 X-9.8 Y290 E4.52338 K0
G1 X-9.8 Y280.2 E5.04490 K1
G1 X0 Y280.2 E5.56642 K0
G1 X9.8 Y280.2 E6.08794 K1
G1 X9.8 Y290 E6.60945 K0
G1 X9.8 Y299.8 E7.13097 K1
G1 X0 Y299.8 E7.65249 K0
G1 X-9.8 Y299.8 E8.17401 K1
G0 F3600 X-9.8 Y299.6
G0 X-9.01 Y299.01
;TYPE:SKIN
G1 F1125 X-9.01 Y290 E8.65349 K0
G1 X-9.01 Y280.99 E9.13297 K1
G1 X0 Y280.99 E9.61245 K0
G1 X9.01 Y280.99 E10.09192 K1
G1 X9.01 Y290 E10.57140 K0
G1 X9.01 Y299.01 E11.05088 K1
G1 X0 Y299.01 E11.53036 K0
G1 X-9.01 Y299.01 E12.00984 K1
G0 F3600 X-8.338 Y298.828
G1 F1125 X-8.83 Y298.336 E12.04686
G0 F3600 X-8.83 Y297.771
G1 F1125 X-7.772 Y298.828 E12.12645
G0 F3600 X-7.206 Y298.828
G1 F1125 X-8.83 Y297.205 E12.24863
G0 F3600 X-8.83 Y296.639
G1 F1125 X-6.641 Y298.828 E12.41337
G0 F3600 X-6.075 Y298.828
G1 F1125 X-8.83 Y296.074 E12.62068
G0 F3600 X-8.83 Y295.508
G1 F1125 X-5.509 Y298.828 E12.87057
G0 F3600 X-4.944 Y298.828
G1 F1125 X-8.83 Y294.942 E13.16303
G0 F3600 X-8.83 Y294.377
G1 F1125 X-4.378 Y298.828 E13.49805
G0 F3600 X-3.812 Y298.828
G1 F1125 X-8.83 Y293.811 E13.87566
G0 F3600 X-8.83 Y293.245
G1 F1125 X-3.247 Y298.828 E14.29583
G0 F3600 X-2.681 Y298.828
G1 F1125 X-8.83 Y292.679 E14.7586
G0 F3600 X-8.83 Y292.114
G1 F1125 X-2.115 Y298.828 E15.26393
G0 F3600 X-1.549 Y298.828
G1 F1125 X-8.83 Y291.548 E15.81185
G0 F3600 X-8.83 Y290.982
G1 F1125 X-.984 Y298.828 E16.40233
G0 F3600 X-.418 Y298.828
G1 F1125 X-8.83 Y290.417 E17.03537
G0 F3600 X-8.83 Y289.851
G1 F1125 X0.147 Y298.828 E17.71098
G0 F3600 X0.712 Y298.828
G1 F1125 X-8.83 Y289.285 E18.42914
G0 F3600 X-8.83 Y288.72
G1 F1125 X1.278 Y298.828 E19.18985
G0 F3600 X1.844 Y298.828
G1 F1125 X-3.493 Y293.491 E19.59151 K0
G1 X-8.83 Y288.154 E19.99317 K1
G0 F3600 X-8.83 Y287.588
G1 F1125 X-3.21 Y293.208 E20.41611 K0
G1 X2.409 Y298.828 E20.83904 K1
G0 F3600 X2.975 Y298.828
G1 F1125 X-2.927 Y292.925 E21.28326 K0
G1 X-8.83 Y287.023 E21.72748 K1
G0 F3600 X-8.83 Y286.457
G1 F1125 X-2.644 Y292.642 E22.19299 K0
G1 X3.541 Y298.828 E22.65851 K1
G0 F3600 X4.106 Y298.828
G1 F1125 X-2.362 Y292.360 E23.14531 K0
G1 X-8.83 Y285.891 E23.63210 K1
G0 F3600 X-8.83 Y285.326
G1 F1125 X-2.079 Y292.077 E24.14017 K0
G1 X4.672 Y298.828 E24.64825 K1
G0 F3600 X5.238 Y298.828
G1 F1125 X-1.796 Y291.794 E25.17762 K0
G1 X-8.83 Y284.76 E25.70699 K1
G0 F3600 X-8.83 Y284.194
G1 F1125 X-1.514 Y291.511 E26.25764 K0
G1 X5.803 Y298.828 E26.80829 K1
G0 F3600 X6.369 Y298.828
G1 F1125 X-1.23 Y291.228 E27.38022 K0
G1 X-8.83 Y283.629 E27.95216 K1
G0 F3600 X-8.83 Y283.063
G1 F1125 X-0.947 Y290.945 E28.54539 K0
G1 X6.935 Y298.828 E29.13862 K1
G0 F3600 X7.5 Y298.828
G1 F1125 X-0.665 Y290.663 E29.75313 K0
G1 X-8.83 Y282.497 E30.36764 K1
G0 F3600 X-8.83 Y281.931
G1 F1125 X-0.382 Y290.380 E31.00344 K0
G1 X8.066 Y298.828 E31.63925 K1
G0 F3600 X8.632 Y298.828
G1 F1125 X-0.099 Y290.097 E32.29634 K0
G1 X-8.83 Y281.366 E32.95343 K1
G0 F3600 X-8.461 Y281.168
G1 F1125 X0.184 Y289.815 E33.60412 K0
G1 X8.83 Y298.461 E34.25481 K1
G0 F3600 X8.83 Y297.895
G1 F1125 X0.467 Y289.531 E34.88422 K0
G1 X-7.896 Y281.168 E35.51363 K1
G0 F3600 X-7.33 Y281.168
G1 F1125 X0.75 Y289.249 E36.12174 K0
G1 X8.83 Y297.329 E36.72985 K1
G0 F3600 X8.83 Y296.764
G1 F1125 X1.033 Y288.966 E37.31668 K0
G1 X-6.764 Y281.168 E37.90352 K1
G0 F3600 X-6.199 Y281.168
G1 F1125 X1.316 Y288.683 E38.46907 K0
G1 X8.83 Y296.198 E39.03462 K1
G0 F3600 X8.83 Y295.632
G1 F1125 X1.598 Y288.4 E39.57887 K0
G1 X-5.633 Y281.168 E40.12313 K1
G0 F3600 X-5.067 Y281.168
G1 F1125 X1.881 Y288.118 E40.64611 K0
G1 X8.83 Y295.067 E41.16908 K1
G0 F3600 X8.83 Y294.501
G1 F1125 X2.164 Y287.834 E41.67078 K0
G1 X-4.502 Y281.168 E42.17248 K1
G0 F3600 X-3.936 Y281.168
G1 F1125 X2.447 Y287.552 E42.65288 K0
G1 X8.83 Y293.935 E43.13327 K1
G0 F3600 X8.83 Y293.37
G1 F1125 X2.73 Y287.269 E43.59239 K0
G1 X-3.37 Y281.168 E44.05151 K1
G0 F3600 X-2.805 Y281.168
G1 F1125 X3.012 Y286.986 E44.48935 K0
G1 X8.83 Y292.804 E44.92719 K1
G0 F3600 X8.83 Y292.238
G1 F1125 X3.296 Y286.703 E45.34373 K0
G1 X-2.239 Y281.168 E45.76027 K1
G0 F3600 X-1.673 Y281.168
G1 F1125 X8.83 Y291.673 E46.55079
G0 F3600 X8.83 Y291.107
G1 F1125 X-1.108 Y281.168 E47.29875
G0 F3600 X-.542 Y281.168
G1 F1125 X8.83 Y290.541 E48.00412
G0 F3600 X8.83 Y289.976
G1 F1125 X0.023 Y281.168 E48.66696
G0 F3600 X0.589 Y281.168
G1 F1125 X8.83 Y289.41 E49.28721
G0 F3600 X8.83 Y288.844
G1 F1125 X1.154 Y281.168 E49.8649
G0 F3600 X1.72 Y281.168
G1 F1125 X8.83 Y288.278 E50.39999
G0 F3600 X8.83 Y287.713
G1 F1125 X2.286 Y281.168 E50.89252
G0 F3600 X2.851 Y281.168
G1 F1125 X8.83 Y287.147 E51.3425
G0 F3600 X8.83 Y286.581
G1 F1125 X3.417 Y281.168 E51.74987
G0 F3600 X3.983 Y281.168
G1 F1125 X8.83 Y286.016 E52.11469
G0 F3600 X8.83 Y285.45
G1 F1125 X4.548 Y281.168 E52.43695
G0 F3600 X5.114 Y281.168
G1 F1125 X8.83 Y284.884 E52.71661
G0 F3600 X8.83 Y284.319
G1 F1125 X5.68 Y281.168 E52.95372
G0 F3600 X6.245 Y281.168
G1 F1125 X8.83 Y283.753 E53.14826
G0 F3600 X8.83 Y283.187
G1 F1125 X6.811 Y281.168 E53.30021
G0 F3600 X7.377 Y281.168
G1 F1125 X8.83 Y282.622 E53.4096
G0 F3600 X8.83 Y282.056
G1 F1125 X7.942 Y281.168 E53.47643
G0 F3600 X8.508 Y281.168
M104 S200
G1 F1125 X8.83 Y281.49 E53.50066
;MESH:NONMESH
G0 F600 X8.83 Y281.49 Z0.64
G0 F3600 X-0.25 Y290.41 K0
G0 X-9.33 Y299.33 K1
G0 X-9.4 Y299.4
;TIME_ELAPSED:85.196858
;LAYER:1
M106 S255
;TYPE:WALL-INNER
;MESH:cura_test.stl
G1 F1593 X-9.4 Y290 E54.00089 K0
G1 X-9.4 Y280.6 E54.50113 K1
G1 X0 Y280.6 E55.00136 K0
G1 X9.4 Y280.6 E55.50159 K1
G1 X9.4 Y290 E56.00182 K0
G1 X9.4 Y299.4 E56.50206 K1
G1 X0 Y299.4 E57.00229 K0
G1 X-9.4 Y299.4 E57.50252 K1
G0 F4500 X-9.8 Y299.8
;TYPE:WALL-OUTER
G1 F1218 X-9.8 Y290 E58.02404 K0
G1 X-9.8 Y280.2 E58.54556 K1
G1 X0 Y280.2 E59.06708 K0
G1 X9.8 Y280.2 E59.5886 K1
G1 X9.8 Y290 E60.11012 K0
G1 X9.8 Y299.8 E60.63164 K1
G1 X0 Y299.8 E61.15315 K0
G1 X-9.8 Y299.8 E61.67467 K1
G0 F4500 X-9.8 Y299.6
G0 X-9.01 Y299.01
;TYPE:SKIN
G1 F1128 X-9.01 Y290 E62.15415 K0
G1 X-9.01 Y280.99 E62.63363 K1
G1 X0 Y280.99 E63.11311 K0
G1 X9.01 Y280.99 E63.59259 K1
G1 X9.01 Y290 E64.07207 K0
G1 X9.01 Y299.01 E64.55154 K1
G1 X0 Y299.01 E65.03102 K0
G1 X-9.01 Y299.01 E65.5105 K1
G0 F4500 X-8.919 Y290.25 K0
G0 X-8.829 Y281.49 K1
G1 F1128.8 X-8.508 Y281.168 E65.5347
G0 F4500 X-7.942 Y281.168
G1 F1128.8 X-8.829 Y282.055 E65.60145
G0 F4500 X-8.829 Y282.621
G1 F1128.8 X-7.377 Y281.168 E65.71076
G0 F4500 X-6.811 Y281.168
G1 F1128.8 X-8.829 Y283.187 E65.86267
G0 F4500 X-8.829 Y283.752
G1 F1128.8 X-6.245 Y281.168 E66.05714
G0 F4500 X-5.68 Y281.168
G1 F1128.8 X-8.829 Y284.318 E66.29417
G0 F4500 X-8.829 Y284.884
G1 F1128.8 X-5.114 Y281.168 E66.5738
G0 F4500 X-4.548 Y281.168
G1 F1128.8 X-8.829 Y285.449 E66.89598
G0 F4500 X-8.829 Y286.015
G1 F1128.8 X-3.983 Y281.168 E67.26072
G0 F4500 X-3.417 Y281.168
G1 F1128.8 X-8.829 Y286.581 E67.66806
G0 F4500 X-8.829 Y287.146
G1 F1128.8 X-2.851 Y281.168 E68.11796
G0 F4500 X-2.286 Y281.168
G1 F1128.8 X-8.829 Y287.712 E68.61042
G0 F4500 X-8.829 Y288.278
G1 F1128.8 X-1.72 Y281.168 E69.14548
G0 F4500 X-1.154 Y281.168
G1 F1128.8 X-8.829 Y288.843 E69.72309
G0 F4500 X-8.829 Y289.409
G1 F1128.8 X-.589 Y281.168 E70.34326
G0 F4500 X-0.023 Y281.168
G1 F1128.8 X-8.829 Y289.975 E71.00603
G0 F4500 X-8.829 Y290.54
G1 F1128.8 X0.542 Y281.168 E71.71132
G0 F4500 X1.108 Y281.168
G1 F1128.8 X-8.829 Y291.106 E72.45921
G0 F4500 X-8.829 Y291.672
G1 F1128.8 X1.673 Y281.168 E73.24966
G0 F4500 X2.239 Y281.168
G1 F1128 X-3.295 Y286.703 E73.66618 K0
G1 X-8.829 Y292.238 E74.08270 K1
G0 F4500 X-8.829 Y292.803
G1 F1128 X-3.012 Y286.986 E74.52050 K0
G1 X2.805 Y281.168 E74.95830 K1
G0 F4500 X3.37 Y281.168
G1 F1128 X-2.730 Y287.269 E75.41738 K0
G1 X-8.829 Y293.369 E75.87646 K1
G0 F4500 X-8.829 Y293.935
G1 F1128 X-2.447 Y287.552 E76.35684 K0
G1 X3.936 Y281.168 E76.83722 K1
G0 F4500 X4.502 Y281.168
G1 F1128 X-2.163 Y287.834 E77.33888 K0
G1 X-8.829 Y294.5 E77.84054 K1
G0 F4500 X-8.829 Y295.066
G1 F1128 X-1.881 Y288.117 E78.36347 K0
G1 X5.067 Y281.168 E78.88641 K1
G0 F4500 X5.633 Y281.168
G1 F1128 X-1.598 Y288.4 E79.43064 K0
G1 X-8.829 Y295.632 E79.97488 K1
G0 F4500 X-8.829 Y296.197
G1 F1128 X-1.315 Y288.683 E80.54039 K0
G1 X6.199 Y281.168 E81.10591 K1
G0 F4500 X6.764 Y281.168
G1 F1128 X-1.032 Y288.966 E81.69271 K0
G1 X-8.829 Y296.763 E82.27951 K1
G0 F4500 X-8.829 Y297.329
G1 F1128 X-0.750 Y289.249 E82.88760 K0
G1 X7.33 Y281.168 E83.49569 K1
G0 F4500 X7.896 Y281.168
G1 F1128 X-0.467 Y289.531 E84.12507 K0
G1 X-8.829 Y297.894 E84.75444 K1
G0 F4500 X-8.829 Y298.46
G1 F1128 X-0.184 Y289.814 E85.40509 K0
G1 X8.461 Y281.168 E86.05574 K1
G0 F4500 X8.829 Y281.366
G1 F1128 X0.099 Y290.097 E86.71281 K0
G1 X-8.632 Y298.828 E87.36988 K1
G0 F4500 X-8.066 Y298.828
G1 F1128 X0.382 Y290.38 E88.00565 K0
G1 X8.829 Y281.932 E88.64142 K1
G0 F4500 X8.829 Y282.498
G1 F1128 X0.665 Y290.663 E89.25589 K0
G1 X-7.5 Y298.828 E89.87036 K1
G0 F4500 X-6.935 Y298.828
G1 F1128 X0.947 Y290.946 E90.46355 K0
G1 X8.829 Y283.064 E91.05675 K1
G0 F4500 X8.829 Y283.629
G1 F1128 X1.23 Y291.228 E91.62866 K0
G1 X-6.369 Y298.828 E92.20057 K1
G0 F4500 X-5.803 Y298.828
G1 F1128 X1.513 Y291.511 E92.75118 K0
G1 X8.829 Y284.195 E93.30180 K1
G0 F4500 X8.829 Y284.761
G1 F1128 X1.796 Y291.794 E93.83114 K0
G1 X-5.238 Y298.828 E94.36047 K1
G0 F4500 X-4.672 Y298.828
G1 F1128 X2.079 Y292.077 E94.86853 K0
G1 X8.829 Y285.326 E95.37658 K1
G0 F4500 X8.829 Y285.892
G1 F1128 X2.362 Y292.36 E95.86334 K0
G1 X-4.106 Y298.828 E96.35010 K1
G0 F4500 X-3.541 Y298.828
G1 F1128 X2.644 Y292.643 E96.81557 K0
G1 X8.829 Y286.458 E97.28105 K1
G0 F4500 X8.829 Y287.023
G1 F1128 X2.927 Y292.925 E97.72525 K0
G1 X-2.975 Y298.828 E98.16945 K1
G0 F4500 X-2.409 Y298.828
G1 F1128 X3.21 Y293.208 E98.59235 K0
G1 X8.829 Y287.589 E99.01525 K1
G0 F4500 X8.829 Y288.155
G1 F1128 X3.493 Y293.491 E99.41687 K0
G1 X-1.844 Y298.828 E99.81849 K1
G0 F4500 X-1.278 Y298.828
G1 F1128.8 X8.829 Y288.72 E100.57917
G0 F4500 X8.829 Y289.286
G1 F1128.8 X-.712 Y298.828 E101.29725
G0 F4500 X-.147 Y298.828
G1 F1128.8 X8.829 Y289.852 E101.97278
G0 F4500 X8.829 Y290.417
G1 F1128.8 X0.418 Y298.828 E102.60578
G0 F4500 X0.984 Y298.828
G1 F1128.8 X8.829 Y290.983 E103.19619
G0 F4500 X8.829 Y291.549
G1 F1128.8 X1.549 Y298.828 E103.74404
G0 F4500 X2.115 Y298.828
G1 F1128.8 X8.829 Y292.115 E104.24929
G0 F4500 X8.829 Y292.68
G1 F1128.8 X2.681 Y298.828 E104.71198
G0 F4500 X3.247 Y298.828
G1 F1128.8 X8.829 Y293.246 E105.13208
G0 F4500 X8.829 Y293.812
G1 F1128.8 X3.812 Y298.828 E105.50962
G0 F4500 X4.378 Y298.828
G1 F1128.8 X8.829 Y294.377 E105.8446
G0 F4500 X8.829 Y294.943
G1 F1128.8 X4.944 Y298.828 E106.13698
G0 F4500 X5.509 Y298.828
G1 F1128.8 X8.829 Y295.509 E106.3868
G0 F4500 X8.829 Y296.074
G1 F1128.8 X6.075 Y298.828 E106.59406
G0 F4500 X6.641 Y298.828
G1 F1128.8 X8.829 Y296.64 E106.75873
G0 F4500 X8.829 Y297.206
G1 F1128.8 X7.206 Y298.828 E106.88084
G0 F4500 X7.772 Y298.828
G1 F1128.8 X8.829 Y297.771 E106.96039
G0 F4500 X8.829 Y298.337
G1 F1128.8 X8.338 Y298.828 E106.99734
;MESH:NONMESH
G0 F600 X8.338 Y298.828 Z0.96
G0 F4500 X-0.496 Y299.079 K0
G0 X-9.33 Y299.33 K1
G0 X-9.4 Y299.4
;TIME_ELAPSED:162.668619
;LAYER:2
;TYPE:WALL-INNER
;MESH:cura_test.stl
G1 F2062 X-9.4 Y290 E107.49757 K0
G1 X-9.4 Y280.6 E107.99780 K1
G1 X0 Y280.6 E108.49804 K0
G1 X9.4 Y280.6 E108.99827 K1
G1 X9.4 Y290 E109.49850 K0
G1 X9.4 Y299.4 E109.99873 K1
G1 X0 Y299.4 E110.49896 K0
G1 X-9.4 Y299.4 E110.9992 K1
G0 F5400 X-9.8 Y299.8
;TYPE:WALL-OUTER
G1 F1312 X-9.8 Y290 E111.52072 K0
G1 X-9.8 Y280.2 E112.04224 K1
G1 X0 Y280.2 E112.56376 K0
G1 X9.8 Y280.2 E113.08527 K1
G1 X9.8 Y290 E113.60679 K0
G1 X9.8 Y299.8 E114.12831 K1
G1 X0 Y299.8 E114.64983 K0
G1 X-9.8 Y299.8 E115.17135 K1
G0 F5400 X-9.8 Y299.6
G0 X-9.01 Y299.01
;TYPE:SKIN
G1 F1132 X-9.01 Y290 E115.65083 K0
G1 X-9.01 Y280.99 E116.13031 K1
G1 X0 Y280.99 E116.60978 K0
G1 X9.01 Y280.99 E117.08926 K1
G1 X9.01 Y290 E117.56874 K0
G1 X9.01 Y299.01 E118.04822 K1
G1 X0 Y299.01 E118.52769 K0
G1 X-9.01 Y299.01 E119.00717 K1
G0 F5400 X-8.338 Y298.828
G1 F1132.5 X-8.83 Y298.336 E119.0442
G0 F5400 X-8.83 Y297.771
G1 F1132.5 X-7.772 Y298.828 E119.12379
G0 F5400 X-7.206 Y298.828
G1 F1132.5 X-8.83 Y297.205 E119.24597
G0 F5400 X-8.83 Y296.639
G1 F1132.5 X-6.641 Y298.828 E119.41071
G0 F5400 X-6.075 Y298.828
G1 F1132.5 X-8.83 Y296.074 E119.61801
G0 F5400 X-8.83 Y295.508
G1 F1132.5 X-5.509 Y298.828 E119.86791
G0 F5400 X-4.944 Y298.828
G1 F1132.5 X-8.83 Y294.942 E120.16037
G0 F5400 X-8.83 Y294.377
G1 F1132.5 X-4.378 Y298.828 E120.49539
G0 F5400 X-3.812 Y298.828
G1 F1132.5 X-8.83 Y293.811 E120.873
G0 F5400 X-8.83 Y293.245
G1 F1132.5 X-3.247 Y298.828 E121.29317
G0 F5400 X-2.681 Y298.828
G1 F1132.5 X-8.83 Y292.679 E121.75594
G0 F5400 X-8.83 Y292.114
G1 F1132.5 X-2.115 Y298.828 E122.26126
G0 F5400 X-1.549 Y298.828
G1 F1132.5 X-8.83 Y291.548 E122.80919
G0 F5400 X-8.83 Y290.982
G1 F1132.5 X-.984 Y298.828 E123.39967
G0 F5400 X-.418 Y298.828
G1 F1132.5 X-8.83 Y290.417 E124.03271
G0 F5400 X-8.83 Y289.851
G1 F1132.5 X0.147 Y298.828 E124.70831
G0 F5400 X0.712 Y298.828
G1 F1132.5 X-8.83 Y289.285 E125.42647
G0 F5400 X-8.83 Y288.72
G1 F1132.5 X1.278 Y298.828 E126.18719
G0 F5400 X1.844 Y298.828
G1 F1132 X-3.493 Y293.491 E126.58885 K0
G1 X-8.83 Y288.154 E126.99051 K1
G0 F5400 X-8.83 Y287.588
G1 F1132 X-3.21 Y293.208 E127.41344 K0
G1 X2.409 Y298.828 E127.83638 K1
G0 F5400 X2.975 Y298.828
G1 F1132 X-2.927 Y292.925 E128.28060 K0
G1 X-8.83 Y287.023 E128.72482 K1
G0 F5400 X-8.83 Y286.457
G1 F1132 X-2.644 Y292.642 E129.19034 K0
G1 X3.541 Y298.828 E129.65585 K1
G0 F5400 X4.106 Y298.828
G1 F1132 X-2.362 Y292.360 E130.14264 K0
G1 X-8.83 Y285.891 E130.62944 K1
G0 F5400 X-8.83 Y285.326
G1 F1132 X-2.079 Y292.077 E131.13751 K0
G1 X4.672 Y298.828 E131.64558 K1
G0 F5400 X5.238 Y298.828
G1 F1132 X-1.796 Y291.794 E132.17496 K0
G1 X-8.83 Y284.76 E132.70433 K1
G0 F5400 X-8.83 Y284.194
G1 F1132 X-1.514 Y291.511 E133.25498 K0
G1 X5.803 Y298.828 E133.80563 K1
G0 F5400 X6.369 Y298.828
G1 F1132 X-1.23 Y291.228 E134.37757 K0
G1 X-8.83 Y283.629 E134.94950 K1
G0 F5400 X-8.83 Y283.063
G1 F1132 X-0.947 Y290.945 E135.54273 K0
G1 X6.935 Y298.828 E136.13596 K1
G0 F5400 X7.5 Y298.828
G1 F1132 X-0.665 Y290.663 E136.75047 K0
G1 X-8.83 Y282.497 E137.36497 K1
G0 F5400 X-8.83 Y281.931
G1 F1132 X-0.382 Y290.380 E138.00078 K0
G1 X8.066 Y298.828 E138.63659 K1
G0 F5400 X8.632 Y298.828
G1 F1132 X-0.099 Y290.097 E139.29368 K0
G1 X-8.83 Y281.366 E139.95076 K1
G0 F5400 X-8.461 Y281.168
G1 F1132 X0.184 Y289.815 E140.60145 K0
G1 X8.83 Y298.461 E141.25214 K1
G0 F5400 X8.83 Y297.895
G1 F1132 X0.467 Y289.531 E141.88155 K0
G1 X-7.896 Y281.168 E142.51097 K1
G0 F5400 X-7.33 Y281.168
G1 F1132 X0.75 Y289.249 E143.11908 K0
G1 X8.83 Y297.329 E143.72719 K1
G0 F5400 X8.83 Y296.764
G1 F1132 X1.033 Y288.966 E144.31403 K0
G1 X-6.764 Y281.168 E144.90086 K1
G0 F5400 X-6.199 Y281.168
G1 F1132 X1.316 Y288.683 E145.46641 K0
G1 X8.83 Y296.198 E146.03196 K1
G0 F5400 X8.83 Y295.632
G1 F1132 X1.598 Y288.4 E146.57621 K0
G1 X-5.633 Y281.168 E147.12047 K1
G0 F5400 X-5.067 Y281.168
G1 F1132 X1.881 Y288.118 E147.64344 K0
G1 X8.83 Y295.067 E148.16642 K1
G0 F5400 X8.83 Y294.501
G1 F1132 X2.164 Y287.834 E148.66812 K0
G1 X-4.502 Y281.168 E149.16982 K1
G0 F5400 X-3.936 Y281.168
G1 F1132 X2.447 Y287.552 E149.65022 K0
G1 X8.83 Y293.935 E150.13061 K1
G0 F5400 X8.83 Y293.37
G1 F1132 X2.73 Y287.269 E150.58973 K0
G1 X-3.37 Y281.168 E151.04885 K1
G0 F5400 X-2.805 Y281.168
