;FLAVOR:Marlin
;TIME:740
;Filament used: 1.03527m
;Layer height: 0.32
;MINX:-1.6
;MINY:276.4
;MINZ:0.32
;MAXX:25.6
;MAXY:303.6
;MAXZ:19.84
G28 ;Home
G1 X0 Y300 Z15 F2000
;Generated with Cura_SteamEngine master
M104 S195
M105
M109 S195
M82 ;absolute extrusion mode
;Prime the extruder
G92 E0
G1 F200 E3
G92 E0
G92 E0
G92 E0
G1 F1500 E-6.5
;LAYER_COUNT:62
;LAYER:0
M107
G0 F1800 X1.165 Y288.2 K0
G0 X2.33 Y276.4 Z0.32 K1
;TYPE:SKIRT
G1 F1500 E0
G1 F1125 X11.838 Y276.4 E-2.75868 K0
G1 X21.345 Y276.4 E0.98263 K1
G1 X22.043 Y276.41 E1.0187
G1 X22.577 Y276.458 E1.04641
G1 X23.098 Y276.584 E1.07411
G1 X23.595 Y276.787 E1.10185
G1 X24.056 Y277.061 E1.12956
G1 X24.471 Y277.4 E1.15726
G1 X24.831 Y277.798 E1.18499
G1 X25.128 Y278.244 E1.21268
G1 X25.356 Y278.73 E1.24042
G1 X25.508 Y279.244 E1.26812
G1 X25.59 Y279.909 E1.30274
G1 X25.599 Y280.229 E1.31929
G1 X25.6 Y280.33 E1.32451
G1 X25.6 Y289.820 E1.81489 K0
G1 X25.6 Y299.309 E2.30527 K1
G1 X25.591 Y300.036 E2.34285
G1 X25.544 Y300.57 E2.37055
G1 X25.419 Y301.091 E2.39823
G1 X25.217 Y301.588 E2.42596
G1 X24.944 Y302.05 E2.45369
G1 X24.606 Y302.466 E2.48139
G1 X24.209 Y302.827 E2.50912
G1 X23.763 Y303.125 E2.53684
G1 X23.278 Y303.353 E2.56453
G1 X22.764 Y303.507 E2.59226
G1 X22.092 Y303.59 E2.62725
G1 X21.771 Y303.599 E2.64384
G1 X21.67 Y303.6 E2.64906
G1 X12.166 Y303.6 E3.14022 K0
G1 X2.661 Y303.6 E3.63138 K1
G1 X1.963 Y303.591 E3.66746
G1 X1.428 Y303.544 E3.69521
G1 X0.907 Y303.418 E3.72291
G1 X0.41 Y303.216 E3.75063
G1 X-0.051 Y302.943 E3.77832
G1 X-.467 Y302.604 E3.80605
G1 X-.828 Y302.208 E3.83374
G1 X-1.126 Y301.762 E3.86146
G1 X-1.354 Y301.276 E3.8892
G1 X-1.507 Y300.762 E3.91691
G1 X-1.59 Y300.088 E3.95201
G1 X-1.599 Y299.755 E3.96922
G1 X-1.6 Y299.658 E3.97423
G1 X-1.6 Y290.142 E4.46601 K0
G1 X-1.6 Y280.625 E4.95779 K1
G1 X-1.591 Y279.96 E4.99216
G1 X-1.543 Y279.426 E5.01987
G1 X-1.417 Y278.905 E5.04757
G1 X-1.215 Y278.408 E5.07529
G1 X-.942 Y277.947 E5.10298
G1 X-.603 Y277.531 E5.13071
G1 X-.206 Y277.171 E5.1584
G1 X0.241 Y276.873 E5.18617
G1 X0.726 Y276.645 E5.21386
G1 X1.24 Y276.492 E5.24157
G1 X1.908 Y276.41 E5.27635
G1 X2.229 Y276.401 E5.29295
G1 X2.33 Y276.4 E5.29817
G0 F1800 X2.33 Y276.8
G1 F1125 X11.835 Y276.8 E5.78932 K0
G1 X21.339 Y276.8 E6.28048 K1
G1 X22.037 Y276.81 E6.31656
G1 X22.54 Y276.857 E6.34266
G1 X23.03 Y276.983 E6.36881
G1 X23.494 Y277.185 E6.39496
G1 X23.92 Y277.457 E6.42108
G1 X24.298 Y277.792 E6.44718
G1 X24.618 Y278.183 E6.47329
G1 X24.873 Y278.62 E6.49944
G1 X25.056 Y279.091 E6.52555
G1 X25.163 Y279.585 E6.55167
G1 X25.19 Y279.92 E6.56904
G1 X25.199 Y280.24 E6.58558
G1 X25.2 Y280.33 E6.59023
G1 X25.2 Y289.817 E7.08048 K0
G1 X25.2 Y299.304 E7.57074 K1
G1 X25.191 Y300.031 E7.60831
G1 X25.145 Y300.534 E7.63441
G1 X25.02 Y301.024 E7.66055
G1 X24.819 Y301.488 E7.68668
G1 X24.548 Y301.915 E7.71281
G1 X24.213 Y302.294 E7.73895
G1 X23.823 Y302.615 E7.76505
G1 X23.387 Y302.871 E7.79118
G1 X22.916 Y303.054 E7.81729
G1 X22.422 Y303.162 E7.84343
G1 X22.081 Y303.19 E7.86111
G1 X21.76 Y303.199 E7.8777
G1 X21.67 Y303.2 E7.88235
G1 X12.168 Y303.2 E8.37338 K0
G1 X2.666 Y303.2 E8.86441 K1
G1 X1.968 Y303.191 E8.90048
G1 X1.464 Y303.144 E8.92664
G1 X0.974 Y303.019 E8.95278
G1 X0.51 Y302.818 E8.97891
G1 X0.084 Y302.547 E9.005
G1 X-.295 Y302.212 E9.03114
G1 X-.616 Y301.821 E9.05728
G1 X-.871 Y301.385 E9.08338
G1 X-1.055 Y300.914 E9.10951
G1 X-1.162 Y300.42 E9.13563
G1 X-1.19 Y300.077 E9.15342
G1 X-1.199 Y299.744 E9.17063
G1 X-1.2 Y299.658 E9.17507
G1 X-1.2 Y290.144 E9.66670 K0
G1 X-1.2 Y280.631 E10.15832 K1
G1 X-1.191 Y279.966 E10.19269
G1 X-1.144 Y279.462 E10.21885
G1 X-1.018 Y278.973 E10.24494
G1 X-.817 Y278.509 E10.27108
G1 X-.546 Y278.082 E10.29721
G1 X-.211 Y277.704 E10.32331
G1 X0.18 Y277.383 E10.34945
G1 X0.617 Y277.128 E10.3756
G1 X1.088 Y276.944 E10.40173
G1 X1.582 Y276.838 E10.42784
G1 X1.919 Y276.81 E10.44531
G1 X2.24 Y276.801 E10.46191
G1 X2.33 Y276.8 E10.46656
G1 F1500 E3.96656
;MESH:cura_test.stl
G0 F1800 X2.614 Y279.335
G0 X2.614 Y280.614
G0 X2.642 Y289.972 K0
G0 X2.67 Y299.33 K1
G0 X2.6 Y299.4
;TYPE:WALL-INNER
G1 F1500 E10.46656
G1 F1125 X2.6 Y290 E10.95232 K0
G1 X2.6 Y280.6 E11.43808 K1
G1 X12 Y280.6 E11.92384 K0
G1 X21.4 Y280.6 E12.4096 K1
G1 X21.4 Y290 E12.89535 K0
G1 X21.4 Y299.4 E13.38111 K1
G1 X12 Y299.4 E13.86687 K0
G1 X2.6 Y299.4 E14.35263 K1
G0 F1800 X2.2 Y299.8
;TYPE:WALL-OUTER
G1 F1125 X2.2 Y290 E14.85906 K0
G1 X2.2 Y280.2 E15.36549 K1
G1 X12 Y280.2 E15.87192 K0
G1 X21.8 Y280.2 E16.37835 K1
G1 X21.8 Y290 E16.88478 K0
G1 X21.8 Y299.8 E17.39121 K1
G1 X12 Y299.8 E17.89764 K0
G1 X2.2 Y299.8 E18.40407 K1
G0 F1800 X2.2 Y299.6
G0 X2.99 Y299.01
;TYPE:SKIN
G1 F1125 X2.99 Y290 E18.86968 K0
G1 X2.99 Y280.99 E19.33528 K1
G1 X12 Y280.99 E19.80089 K0
G1 X21.01 Y280.99 E20.26649 K1
G1 X21.01 Y290 E20.73210 K0
G1 X21.01 Y299.01 E21.1977 K1
G1 X12 Y299.01 E21.66331 K0
G1 X2.99 Y299.01 E22.12891 K1
G0 F1800 X3.541 Y298.828
G1 F1125 X3.169 Y298.457 E22.15606
G0 F1800 X3.169 Y297.892
G1 F1125 X4.106 Y298.828 E22.2245
G0 F1800 X4.672 Y298.828
G1 F1125 X3.169 Y297.326 E22.3343
G0 F1800 X3.169 Y296.76
G1 F1125 X5.238 Y298.828 E22.48547
G0 F1800 X5.803 Y298.828
G1 F1125 X3.169 Y296.195 E22.67793
G0 F1800 X3.169 Y295.629
G1 F1125 X6.369 Y298.828 E22.91176
G0 F1800 X6.935 Y298.828
G1 F1125 X3.169 Y295.063 E23.18694
G0 F1800 X3.169 Y294.497
G1 F1125 X7.5 Y298.828 E23.50346
G0 F1800 X8.066 Y298.828
G1 F1125 X3.169 Y293.932 E23.8613
G0 F1800 X3.169 Y293.366
G1 F1125 X8.632 Y298.828 E24.26051
G0 F1800 X9.198 Y298.828
G1 F1125 X3.169 Y292.8 E24.70108
G0 F1800 X3.169 Y292.235
G1 F1125 X9.763 Y298.828 E25.18295
G0 F1800 X10.329 Y298.828
G1 F1125 X3.169 Y291.669 E25.70618
G0 F1800 X3.169 Y291.103
G1 F1125 X10.895 Y298.828 E26.27077
G0 F1800 X11.46 Y298.828
G1 F1125 X3.169 Y290.538 E26.87665
G0 F1800 X3.169 Y289.972
G1 F1125 X12.026 Y298.828 E27.5239
G0 F1800 X12.592 Y298.828
G1 F1125 X3.169 Y289.406 E28.21251
G0 F1800 X3.169 Y288.841
G1 F1125 X13.157 Y298.828 E28.94241
G0 F1800 X13.723 Y298.828
G1 F1125 X3.169 Y288.275 E29.71368
G0 F1800 X3.169 Y287.709
G1 F1125 X8.729 Y293.269 E30.11999 K0
G1 X14.289 Y298.828 E30.52631 K1
G0 F1800 X14.854 Y298.828
G1 F1125 X9.011 Y292.986 E30.95327 K0
G1 X3.169 Y287.144 E31.38023 K1
G0 F1800 X3.169 Y286.578
G1 F1125 X9.294 Y292.703 E31.82787 K0
G1 X15.42 Y298.828 E32.27551 K1
G0 F1800 X15.986 Y298.828
G1 F1125 X9.578 Y292.42 E32.74383 K0
G1 X3.169 Y286.012 E33.21216 K1
G0 F1800 X3.169 Y285.446
G1 F1125 X9.86 Y292.137 E33.70115 K0
G1 X16.551 Y298.828 E34.19014 K1
G0 F1800 X17.117 Y298.828
G1 F1125 X10.143 Y291.854 E34.69979 K0
G1 X3.169 Y284.881 E35.20945 K1
G0 F1800 X3.169 Y284.315
G1 F1125 X10.426 Y291.572 E35.73978 K0
G1 X17.683 Y298.828 E36.27012 K1
G0 F1800 X18.249 Y298.828
G1 F1125 X10.709 Y291.288 E36.82113 K0
G1 X3.169 Y283.749 E37.37215 K1
G0 F1800 X3.169 Y283.184
G1 F1125 X10.992 Y291.006 E37.94381 K0
G1 X18.814 Y298.828 E38.51547 K1
G0 F1800 X19.38 Y298.828
G1 F1125 X11.274 Y290.723 E39.10782 K0
G1 X3.169 Y282.618 E39.70016 K1
G0 F1800 X3.169 Y282.052
G1 F1125 X11.558 Y290.44 E40.31318 K0
G1 X19.946 Y298.828 E40.92621 K1
G0 F1800 X20.511 Y298.828
G1 F1125 X11.84 Y290.158 E41.55988 K0
G1 X3.169 Y281.487 E42.19356 K1
G0 F1800 X3.418 Y281.169
G1 F1125 X12.123 Y289.875 E42.82979 K0
G1 X20.829 Y298.581 E43.46602 K1
G0 F1800 X20.829 Y298.015
G1 F1125 X12.406 Y289.592 E44.08159 K0
G1 X3.983 Y281.169 E44.69715 K1
G0 F1800 X4.549 Y281.169
G1 F1125 X12.689 Y289.309 E45.29205 K0
G1 X20.829 Y297.45 E45.88695 K1
G0 F1800 X20.829 Y296.884
G1 F1125 X12.972 Y289.026 E46.46117 K0
G1 X5.115 Y281.169 E47.03539 K1
G0 F1800 X5.68 Y281.169
G1 F1125 X13.255 Y288.743 E47.58895 K0
G1 X20.829 Y296.318 E48.14251 K1
G0 F1800 X20.829 Y295.753
G1 F1125 X13.538 Y288.461 E48.67540 K0
G1 X6.246 Y281.169 E49.20829 K1
G0 F1800 X6.812 Y281.169
G1 F1125 X13.82 Y288.178 E49.72050 K0
G1 X20.829 Y295.187 E50.23271 K1
G0 F1800 X20.829 Y294.621
G1 F1125 X14.103 Y287.895 E50.72426 K0
G1 X7.377 Y281.169 E51.21581 K1
G0 F1800 X7.943 Y281.169
G1 F1125 X14.386 Y287.612 E51.68669 K0
G1 X20.829 Y294.056 E52.15757 K1
G0 F1800 X20.829 Y293.49
G1 F1125 X14.669 Y287.329 E52.60777 K0
G1 X8.509 Y281.169 E53.05797 K1
G0 F1800 X9.075 Y281.169
G1 F1125 X14.952 Y287.046 E53.48749 K0
G1 X20.829 Y292.924 E53.91701 K1
G0 F1800 X20.829 Y292.358
G1 F1125 X15.235 Y286.764 E54.32587 K0
G1 X9.64 Y281.169 E54.73472 K1
G0 F1800 X10.206 Y281.169
G1 F1125 X15.518 Y286.481 E55.12291 K0
G1 X20.829 Y291.793 E55.51110 K1
G0 F1800 X20.829 Y291.227
G1 F1125 X10.772 Y281.169 E56.24612
G0 F1800 X11.337 Y281.169
G1 F1125 X20.829 Y290.661 E56.93981
G0 F1800 X20.829 Y290.096
G1 F1125 X11.903 Y281.169 E57.59217
G0 F1800 X12.469 Y281.169
G1 F1125 X20.829 Y289.53 E58.20317
G0 F1800 X20.829 Y288.964
G1 F1125 X13.034 Y281.169 E58.77284
G0 F1800 X13.6 Y281.169
G1 F1125 X20.829 Y288.399 E59.30118
G0 F1800 X20.829 Y287.833
G1 F1125 X14.166 Y281.169 E59.78816
G0 F1800 X14.731 Y281.169
G1 F1125 X20.829 Y287.267 E60.23382
G0 F1800 X20.829 Y286.702
G1 F1125 X15.297 Y281.169 E60.63814
G0 F1800 X15.863 Y281.169
G1 F1125 X20.829 Y286.136 E61.0011
G0 F1800 X20.829 Y285.57
G1 F1125 X16.428 Y281.169 E61.32273
G0 F1800 X16.994 Y281.169
G1 F1125 X20.829 Y285.005 E61.60303
G0 F1800 X20.829 Y284.439
G1 F1125 X17.56 Y281.169 E61.84197
G0 F1800 X18.125 Y281.169
G1 F1125 X20.829 Y283.873 E62.03959
G0 F1800 X20.829 Y283.307
G1 F1125 X18.691 Y281.169 E62.19584
G0 F1800 X19.257 Y281.169
G1 F1125 X20.829 Y282.742 E62.31076
G0 F1800 X20.829 Y282.176
G1 F1125 X19.823 Y281.169 E62.38431
G0 F1800 X20.388 Y281.169
G1 F1125 X20.829 Y281.61 E62.41654
;MESH:NONMESH
G0 F600 X20.829 Y281.61 Z0.64
G0 F1800 X11.750 Y290.47 K0
G0 X2.67 Y299.33 K1
G0 X2.6 Y299.4
;TIME_ELAPSED:78.544892
;LAYER:1
M106 S255
;TYPE:WALL-INNER
;MESH:cura_test.stl
G1 F1593 X2.6 Y290 E62.90230 K0
G1 X2.6 Y280.6 E63.38806 K1
G1 X12 Y280.6 E63.87382 K0
G1 X21.4 Y280.6 E64.35958 K1
G1 X21.4 Y290 E64.84534 K0
G1 X21.4 Y299.4 E65.3311 K1
G1 X12 Y299.4 E65.81686 K0
G1 X2.6 Y299.4 E66.30261 K1
G0 F2250 X2.2 Y299.8
;TYPE:WALL-OUTER
G1 F1218 X2.2 Y290 E66.80904 K0
G1 X2.2 Y280.2 E67.31547 K1
G1 X12 Y280.2 E67.82190 K0
G1 X21.8 Y280.2 E68.32833 K1
G1 X21.8 Y290 E68.83476 K0
G1 X21.8 Y299.8 E69.34119 K1
G1 X12 Y299.8 E69.84762 K0
G1 X2.2 Y299.8 E70.35405 K1
G0 F2250 X2.2 Y299.6
G0 X2.99 Y299.01
;TYPE:SKIN
G1 F1128 X2.99 Y290 E70.81965 K0
G1 X2.99 Y280.99 E71.28526 K1
G1 X12 Y280.99 E71.75087 K0
G1 X21.01 Y280.99 E72.21647 K1
G1 X21.01 Y290 E72.68207 K0
G1 X21.01 Y299.01 E73.14768 K1
G1 X12 Y299.01 E73.61328 K0
G1 X2.99 Y299.01 E74.07889 K1
G0 F2250 X3.080 Y290.190 K0
G0 X3.169 Y281.369 K1
G1 F1128.8 X3.37 Y281.168 E74.09358
G0 F2250 X3.936 Y281.168
G1 F1128.8 X3.169 Y281.935 E74.14963
G0 F2250 X3.169 Y282.501
G1 F1128.8 X4.502 Y281.168 E74.24705
G0 F2250 X5.067 Y281.168
G1 F1128.8 X3.169 Y283.066 E74.38576
G0 F2250 X3.169 Y283.632
G1 F1128.8 X5.633 Y281.168 E74.56583
G0 F2250 X6.199 Y281.168
G1 F1128.8 X3.169 Y284.198 E74.78727
G0 F2250 X3.169 Y284.763
G1 F1128.8 X6.764 Y281.168 E75.05
G0 F2250 X7.33 Y281.168
G1 F1128.8 X3.169 Y285.329 E75.35409
G0 F2250 X3.169 Y285.895
G1 F1128.8 X7.896 Y281.168 E75.69954
G0 F2250 X8.461 Y281.168
G1 F1128.8 X3.169 Y286.46 E76.08629
G0 F2250 X3.169 Y287.026
G1 F1128.8 X9.027 Y281.168 E76.5144
G0 F2250 X9.593 Y281.168
G1 F1128.8 X3.169 Y287.592 E76.98388
G0 F2250 X3.169 Y288.158
G1 F1128.8 X10.159 Y281.168 E77.49472
G0 F2250 X10.724 Y281.168
G1 F1128.8 X3.169 Y288.723 E78.04685
G0 F2250 X3.169 Y289.289
G1 F1128.8 X11.29 Y281.168 E78.64035
G0 F2250 X11.856 Y281.168
G1 F1128.8 X3.169 Y289.855 E79.27521
G0 F2250 X3.169 Y290.42
G1 F1128.8 X12.421 Y281.168 E79.95136
G0 F2250 X12.987 Y281.168
G1 F1128.8 X3.169 Y290.986 E80.66887
G0 F2250 X3.169 Y291.552
G1 F1128.8 X13.553 Y281.168 E81.42775
G0 F2250 X14.118 Y281.168
G1 F1128 X8.643 Y286.643 E81.82783 K0
G1 X3.169 Y292.117 E82.22792 K1
G0 F2250 X3.169 Y292.683
G1 F1128 X8.926 Y286.925 E82.64869 K0
G1 X14.684 Y281.168 E83.06945 K1
G0 F2250 X15.25 Y281.168
G1 F1128 X9.210 Y287.209 E83.51090 K0
G1 X3.169 Y293.249 E83.95235 K1
G0 F2250 X3.169 Y293.814
G1 F1128 X9.492 Y287.491 E84.41445 K0
G1 X15.815 Y281.168 E84.87654 K1
G0 F2250 X16.381 Y281.168
G1 F1128 X9.775 Y287.774 E85.35932 K0
G1 X3.169 Y294.38 E85.84210 K1
G0 F2250 X3.169 Y294.946
G1 F1128 X10.058 Y288.057 E86.34556 K0
G1 X16.947 Y281.168 E86.84901 K1
G0 F2250 X17.512 Y281.168
G1 F1128 X10.34 Y288.340 E87.37312 K0
G1 X3.169 Y295.511 E87.89722 K1
G0 F2250 X3.169 Y296.077
G1 F1128 X10.623 Y288.623 E88.44201 K0
G1 X18.078 Y281.168 E88.98680 K1
G0 F2250 X18.644 Y281.168
G1 F1128 X10.906 Y288.905 E89.55227 K0
G1 X3.169 Y296.643 E90.11773 K1
G0 F2250 X3.169 Y297.209
G1 F1128 X11.189 Y289.188 E90.70387 K0
G1 X19.209 Y281.168 E91.29000 K1
G0 F2250 X19.775 Y281.168
G1 F1128 X11.472 Y289.471 E91.89679 K0
G1 X3.169 Y297.774 E92.50359 K1
G0 F2250 X3.169 Y298.34
G1 F1128 X11.755 Y289.754 E93.13107 K0
G1 X20.341 Y281.168 E93.75855 K1
G0 F2250 X20.829 Y281.246
G1 F1128 X12.037 Y290.038 E94.40104 K0
G1 X3.246 Y298.829 E95.04354 K1
G0 F2250 X3.812 Y298.829
G1 F1128 X12.32 Y290.32 E95.66537 K0
G1 X20.829 Y281.811 E96.28721 K1
G0 F2250 X20.829 Y282.377
G1 F1128 X12.603 Y290.603 E96.88837 K0
G1 X4.377 Y298.829 E97.48954 K1
G0 F2250 X4.943 Y298.829
G1 F1128 X12.886 Y290.886 E98.07003 K0
G1 X20.829 Y282.943 E98.65052 K1
G0 F2250 X20.829 Y283.508
G1 F1128 X13.169 Y291.168 E99.21034 K0
G1 X5.509 Y298.829 E99.77016 K1
G0 F2250 X6.074 Y298.829
G1 F1128 X13.451 Y291.452 E100.30932 K0
G1 X20.829 Y284.074 E100.84848 K1
G0 F2250 X20.829 Y284.64
G1 F1128 X13.735 Y291.735 E101.36696 K0
G1 X6.64 Y298.829 E101.88544 K1
G0 F2250 X7.206 Y298.829
G1 F1128 X14.018 Y292.017 E102.38325 K0
G1 X20.829 Y285.205 E102.88106 K1
G0 F2250 X20.829 Y285.771
G1 F1128 X14.3 Y292.3 E103.35821 K0
G1 X7.771 Y298.829 E103.83536 K1
G0 F2250 X8.337 Y298.829
G1 F1128 X14.583 Y292.583 E104.29183 K0
G1 X20.829 Y286.337 E104.74830 K1
G0 F2250 X20.829 Y286.902
G1 F1128 X14.866 Y292.865 E105.18410 K0
G1 X8.903 Y298.829 E105.61990 K1
G0 F2250 X9.468 Y298.829
G1 F1128 X15.149 Y293.149 E106.03504 K0
G1 X20.829 Y287.468 E106.45018 K1
G0 F2250 X20.829 Y288.034
G1 F1128 X15.431 Y293.432 E106.84464 K0
G1 X10.034 Y298.829 E107.23910 K1
G0 F2250 X10.6 Y298.829
G1 F1128.8 X20.829 Y288.599 E107.98669
G0 F2250 X20.829 Y289.165
G1 F1128.8 X11.165 Y298.829 E108.69295
G0 F2250 X11.731 Y298.829
G1 F1128.8 X20.829 Y289.731 E109.35784
G0 F2250 X20.829 Y290.297
G1 F1128.8 X12.297 Y298.829 E109.98137
G0 F2250 X12.862 Y298.829
G1 F1128.8 X20.829 Y290.862 E110.56362
G0 F2250 X20.829 Y291.428
G1 F1128.8 X13.428 Y298.829 E111.10449
G0 F2250 X13.994 Y298.829
G1 F1128.8 X20.829 Y291.994 E111.604
G0 F2250 X20.829 Y292.559
G1 F1128.8 X14.56 Y298.829 E112.06219
G0 F2250 X15.125 Y298.829
G1 F1128.8 X20.829 Y293.125 E112.47905
G0 F2250 X20.829 Y293.691
G1 F1128.8 X15.691 Y298.829 E112.85454
G0 F2250 X16.257 Y298.829
G1 F1128.8 X20.829 Y294.256 E113.1887
G0 F2250 X20.829 Y294.822
G1 F1128.8 X16.822 Y298.829 E113.48154
G0 F2250 X17.388 Y298.829
G1 F1128.8 X20.829 Y295.388 E113.73302
G0 F2250 X20.829 Y295.953
G1 F1128.8 X17.954 Y298.829 E113.94316
G0 F2250 X18.519 Y298.829
G1 F1128.8 X20.829 Y296.519 E114.11198
G0 F2250 X20.829 Y297.085
G1 F1128.8 X19.085 Y298.829 E114.23944
G0 F2250 X19.651 Y298.829
G1 F1128.8 X20.829 Y297.65 E114.32556
G0 F2250 X20.829 Y298.216
G1 F1128.8 X20.216 Y298.829 E114.37036
G1 X20.146 Y298.899
;MESH:NONMESH
G0 F600 X20.146 Y298.899 Z0.96
G0 F2250 X11.408 Y299.115 K0
G0 X2.67 Y299.33 K1
G0 X2.6 Y299.4
;TIME_ELAPSED:132.829727
;LAYER:2
;TYPE:WALL-INNER
;MESH:cura_test.stl
G1 F2062 X2.6 Y290 E114.85612 K0
G1 X2.6 Y280.6 E115.34188 K1
G1 X12 Y280.6 E115.82764 K0
G1 X21.4 Y280.6 E116.3134 K1
G1 X21.4 Y290 E116.79915 K0
G1 X21.4 Y299.4 E117.28491 K1
G1 X12 Y299.4 E117.77067 K0
G1 X2.6 Y299.4 E118.25643 K1
G0 F2700 X2.2 Y299.8
;TYPE:WALL-OUTER
G1 F1312 X2.2 Y290 E118.76286 K0
G1 X2.2 Y280.2 E119.26929 K1
G1 X12 Y280.2 E119.77572 K0
G1 X21.8 Y280.2 E120.28215 K1
G1 X21.8 Y290 E120.78858 K0
G1 X21.8 Y299.8 E121.29501 K1
G1 X12 Y299.8 E121.80144 K0
G1 X2.2 Y299.8 E122.30787 K1
G0 F2700 X2.2 Y299.6
