;FLAVOR:Marlin
;TIME:23784
;Filament used: 20.1995m, 0m
;Layer height: 0.15
;MINX:13.9
;MINY:58.9
;MINZ:0.25
;MAXX:96.1
;MAXY:141.1
;MAXZ:14.95
;Generated with Cura_SteamEngine 4.2.1
T0
M104 S200
M105
M109 S200
M82 ;absolute extrusion mode
;START CODE
G21        ;metric values
M106
G92 Z0
G1 Z10
G28 Y
G28 X
M401
G1 X60 Y60 F6000
G28 Z
G29
;T1 ;first prime T1 and move it back
;G92 E0
;G1 Z5
;G1 Y0 F6000
;G1 Z1
;G1 F5000 E200
;G92 E0
;G1 X0 F300 E60 ;extrude 3mm of feed stock
;G92 E0
;G1 E-5 F10000
;G92 E0
;G1 E2 F10000
;G92 E0
;G1 E-197 F10000
;G92 E0
;G1 Z5
T0 ;then prime T0
G92 E0
G1 Y2 X100
G1 Z1
G1 F5000 E200
G92 E0
G1 X0 F300 E60 ;extrude 3mm of feed stock
G92 E0
M82
M141 S28
G92 E0
;AFTER TOOL CHANGE CODE
;G92 E0
;G1 F3000 E199.5
;G92 E0
G92 E0
G1 F2100 E-6.5
;LAYER_COUNT:99
;LAYER:0
M106 S255
M204 S300
M205 X30 Y30
G0 F4500 X16.74 Y58.992 Z0.25
M204 S100
M205 X20 Y20
;TYPE:SKIRT
G1 F2100 E0
G1 F1800 X17.408 Y58.91 E0.02997
G1 X17.729 Y58.901 E0.04428
G1 X17.83 Y58.9 E0.04877
G1 X91.845 Y58.9 E3.34513
G1 X92.543 Y58.91 E3.37622
G1 X93.077 Y58.958 E3.4001
G1 X93.598 Y59.084 E3.42397
G1 X94.095 Y59.287 E3.44788
G1 X94.556 Y59.561 E3.47177
G1 X94.971 Y59.9 E3.49563
G1 X95.331 Y60.298 E3.51953
G1 X95.628 Y60.744 E3.5434
G1 X95.856 Y61.23 E3.56731
G1 X96.008 Y61.744 E3.59118
G1 X96.09 Y62.409 E3.62102
G1 X96.099 Y62.729 E3.63528
G1 X96.1 Y62.83 E3.63977
G1 X96.1 Y136.809 E6.93453
G1 X96.091 Y137.536 E6.96691
G1 X96.044 Y138.07 E6.99078
G1 X95.919 Y138.591 E7.01465
G1 X95.717 Y139.088 E7.03854
G1 X95.444 Y139.55 E7.06244
G1 X95.106 Y139.966 E7.08631
G1 X94.709 Y140.327 E7.11021
G1 X94.263 Y140.625 E7.1341
G1 X93.778 Y140.853 E7.15796
G1 X93.264 Y141.007 E7.18186
G1 X92.592 Y141.09 E7.21202
G1 X92.271 Y141.099 E7.22632
G1 X92.17 Y141.1 E7.23082
G1 X18.161 Y141.1 E10.52691
G1 X17.463 Y141.091 E10.558
G1 X16.928 Y141.044 E10.58192
G1 X16.407 Y140.918 E10.60579
G1 X15.91 Y140.716 E10.62968
G1 X15.449 Y140.443 E10.65354
G1 X15.033 Y140.104 E10.67744
G1 X14.672 Y139.708 E10.70131
G1 X14.374 Y139.262 E10.7252
G1 X14.146 Y138.776 E10.74911
G1 X13.993 Y138.262 E10.77299
G1 X13.91 Y137.588 E10.80323
G1 X13.901 Y137.255 E10.81807
G1 X13.9 Y137.158 E10.82239
G1 X13.9 Y63.125 E14.11955
G1 X13.909 Y62.46 E14.14917
G1 X13.957 Y61.926 E14.17305
G1 X14.083 Y61.405 E14.19692
G1 X14.285 Y60.908 E14.22081
G1 X14.558 Y60.447 E14.24467
G1 X14.897 Y60.031 E14.26857
G1 X15.294 Y59.671 E14.29244
G1 X15.741 Y59.373 E14.31637
G1 X16.226 Y59.145 E14.34024
G1 X16.74 Y58.992 E14.36412
M204 S300
M205 X30 Y30
G0 F4500 X16.588 Y59.444
M204 S100
M205 X20 Y20
G1 F1800 X17.082 Y59.338 E14.38662
G1 X17.419 Y59.31 E14.40168
G1 X17.74 Y59.301 E14.41598
G1 X17.83 Y59.3 E14.41999
G1 X91.839 Y59.3 E17.71608
G1 X92.537 Y59.31 E17.74717
G1 X93.04 Y59.357 E17.76967
G1 X93.53 Y59.483 E17.79221
G1 X93.994 Y59.685 E17.81474
G1 X94.42 Y59.957 E17.83725
G1 X94.798 Y60.292 E17.85975
G1 X95.118 Y60.683 E17.88225
G1 X95.373 Y61.12 E17.90479
G1 X95.556 Y61.591 E17.92729
G1 X95.663 Y62.085 E17.9498
G1 X95.69 Y62.42 E17.96477
G1 X95.699 Y62.74 E17.97903
G1 X95.7 Y62.83 E17.98303
G1 X95.7 Y136.804 E21.27757
G1 X95.691 Y137.531 E21.30995
G1 X95.645 Y138.034 E21.33244
G1 X95.52 Y138.524 E21.35496
G1 X95.319 Y138.988 E21.37748
G1 X95.048 Y139.415 E21.40001
G1 X94.713 Y139.794 E21.42254
G1 X94.323 Y140.115 E21.44503
G1 X93.887 Y140.371 E21.46755
G1 X93.416 Y140.554 E21.49005
G1 X92.922 Y140.662 E21.51258
G1 X92.581 Y140.69 E21.52781
G1 X92.26 Y140.699 E21.54211
G1 X92.17 Y140.7 E21.54612
G1 X18.166 Y140.7 E24.84199
G1 X17.468 Y140.691 E24.87308
G1 X16.964 Y140.644 E24.89562
G1 X16.474 Y140.519 E24.91815
G1 X16.01 Y140.318 E24.94067
G1 X15.584 Y140.047 E24.96315
G1 X15.205 Y139.712 E24.98568
G1 X14.884 Y139.321 E25.00821
G1 X14.629 Y138.885 E25.03071
G1 X14.445 Y138.414 E25.05323
G1 X14.338 Y137.92 E25.07574
G1 X14.31 Y137.577 E25.09106
G1 X14.301 Y137.244 E25.1059
G1 X14.3 Y137.158 E25.10973
G1 X14.3 Y63.131 E28.40662
G1 X14.309 Y62.466 E28.43624
G1 X14.356 Y61.962 E28.45879
G1 X14.482 Y61.473 E28.48128
G1 X14.683 Y61.009 E28.5038
G1 X14.954 Y60.582 E28.52632
G1 X15.289 Y60.204 E28.54882
G1 X15.68 Y59.883 E28.57135
G1 X16.117 Y59.628 E28.59388
G1 X16.588 Y59.444 E28.6164
M204 S300
M205 X30 Y30
G1 F2100 E22.1164
;MESH:15mm test.stl
G0 F4500 X18.114 Y61.835
G0 X18.114 Y63.114
G0 X19.3 Y135.7
M204 S100
M205 X20 Y20
;TYPE:WALL-INNER
G1 F2100 E28.6164
G1 F1800 X19.3 Y64.3 E31.7963
G1 X90.7 Y64.3 E34.97619
G1 X90.7 Y135.7 E38.15609
G1 X19.3 Y135.7 E41.33598
M204 S300
M205 X30 Y30
G0 F4500 X18.9 Y136.1
M204 S100
M205 X20 Y20
G1 F1800 X18.9 Y63.9 E44.55151
G1 X91.1 Y63.9 E47.76704
G1 X91.1 Y136.1 E50.98256
G1 X18.9 Y136.1 E54.19809
M204 S300
M205 X30 Y30
G0 F4500 X18.5 Y136.5
M204 S100
M205 X20 Y20
G1 F1800 X18.5 Y63.5 E57.44924
G1 X91.5 Y63.5 E60.70039
G1 X91.5 Y136.5 E63.95155
G1 X18.5 Y136.5 E67.2027
M204 S300
M205 X30 Y30
G0 F4500 X18.1 Y136.9
M204 S100
M205 X20 Y20
G1 F1800 X18.1 Y63.1 E70.48949
G1 X91.9 Y63.1 E73.77627
G1 X91.9 Y136.9 E77.06305
G1 X18.1 Y136.9 E80.34984
M204 S300
M205 X30 Y30
G0 F4500 X17.7 Y137.3
M204 S100
M205 X20 Y20
;TYPE:WALL-OUTER
G1 F1800 X17.7 Y62.7 E83.67225
G1 X92.3 Y62.7 E86.99466
G1 X92.3 Y137.3 E90.31707
G1 X17.7 Y137.3 E93.63949
M204 S300
M205 X30 Y30
G0 F4500 X17.7 Y137.1
G0 X18.17 Y136.83
G0 X19.69 Y135.31
M204 S100
M205 X20 Y20
;TYPE:SKIN
G1 F1800 X19.69 Y64.69 E96.78464
G1 X90.31 Y64.69 E99.9298
G1 X90.31 Y135.31 E103.07496
G1 X19.69 Y135.31 E106.22012
M204 S300
M205 X30 Y30
G0 F4500 X55.11 Y100.11
M204 S100
M205 X20 Y20
G1 F1800 X54.89 Y100.11 E106.22992
G1 X54.89 Y99.89 E106.23971
G1 X55.11 Y99.89 E106.24951
G1 X55.11 Y100.11 E106.25931
M204 S300
M205 X30 Y30
G0 F4500 X55.51 Y100.51
M204 S100
M205 X20 Y20
G1 F1800 X54.49 Y100.51 E106.30474
G1 X54.49 Y99.49 E106.35016
G1 X55.51 Y99.49 E106.39559
G1 X55.51 Y100.51 E106.44102
M204 S300
M205 X30 Y30
G0 F4500 X55.91 Y100.91
M204 S100
M205 X20 Y20
G1 F1800 X54.09 Y100.91 E106.52207
G1 X54.09 Y99.09 E106.60313
G1 X55.91 Y99.09 E106.68419
G1 X55.91 Y100.91 E106.76524
M204 S300
M205 X30 Y30
G0 F4500 X56.31 Y101.31
M204 S100
M205 X20 Y20
G1 F1800 X53.69 Y101.31 E106.88193
G1 X53.69 Y98.69 E106.99861
G1 X56.31 Y98.69 E107.1153
G1 X56.31 Y101.31 E107.23198
M204 S300
M205 X30 Y30
G0 F4500 X56.71 Y101.71
M204 S100
M205 X20 Y20
G1 F1800 X53.29 Y101.71 E107.3843
G1 X53.29 Y98.29 E107.53661
G1 X56.71 Y98.29 E107.68893
G1 X56.71 Y101.71 E107.84124
M204 S300
M205 X30 Y30
G0 F4500 X57.11 Y102.11
M204 S100
M205 X20 Y20
G1 F1800 X52.89 Y102.11 E108.02918
G1 X52.89 Y97.89 E108.21713
G1 X57.11 Y97.89 E108.40507
G1 X57.11 Y102.11 E108.59301
M204 S300
M205 X30 Y30
G0 F4500 X57.51 Y102.51
M204 S100
M205 X20 Y20
G1 F1800 X52.49 Y102.51 E108.81659
G1 X52.49 Y97.49 E109.04016
G1 X57.51 Y97.49 E109.26373
G1 X57.51 Y102.51 E109.4873
M204 S300
M205 X30 Y30
G0 F4500 X57.91 Y102.91
M204 S100
M205 X20 Y20
G1 F1800 X52.09 Y102.91 E109.74651
G1 X52.09 Y97.09 E110.00571
G1 X57.91 Y97.09 E110.26491
G1 X57.91 Y102.91 E110.52411
M204 S300
M205 X30 Y30
G0 F4500 X58.31 Y103.31
M204 S100
M205 X20 Y20
G1 F1800 X51.69 Y103.31 E110.81894
G1 X51.69 Y96.69 E111.11377
G1 X58.31 Y96.69 E111.4086
G1 X58.31 Y103.31 E111.70343
M204 S300
M205 X30 Y30
G0 F4500 X58.71 Y103.71
M204 S100
M205 X20 Y20
G1 F1800 X51.29 Y103.71 E112.03389
G1 X51.29 Y96.29 E112.36435
G1 X58.71 Y96.29 E112.69481
G1 X58.71 Y103.71 E113.02527
M204 S300
M205 X30 Y30
G0 F4500 X59.11 Y104.11
M204 S100
M205 X20 Y20
G1 F1800 X50.89 Y104.11 E113.39136
G1 X50.89 Y95.89 E113.75745
G1 X59.11 Y95.89 E114.12354
G1 X59.11 Y104.11 E114.48963
M204 S300
M205 X30 Y30
G0 F4500 X59.51 Y104.51
M204 S100
M205 X20 Y20
G1 F1800 X50.49 Y104.51 E114.89135
G1 X50.49 Y95.49 E115.29306
G1 X59.51 Y95.49 E115.69478
G1 X59.51 Y104.51 E116.0965
M204 S300
M205 X30 Y30
G0 F4500 X59.91 Y104.91
M204 S100
M205 X20 Y20
G1 F1800 X50.09 Y104.91 E116.53385
G1 X50.09 Y95.09 E116.97119
G1 X59.91 Y95.09 E117.40854
G1 X59.91 Y104.91 E117.84589
M204 S300
M205 X30 Y30
G0 F4500 X60.31 Y105.31
M204 S100
M205 X20 Y20
G1 F1800 X49.69 Y105.31 E118.31886
G1 X49.69 Y94.69 E118.79184
G1 X60.31 Y94.69 E119.26482
G1 X60.31 Y105.31 E119.73779
M204 S300
M205 X30 Y30
G0 F4500 X60.71 Y105.71
M204 S100
M205 X20 Y20
G1 F1800 X49.29 Y105.71 E120.2464
G1 X49.29 Y94.29 E120.755
G1 X60.71 Y94.29 E121.26361
G1 X60.71 Y105.71 E121.77221
M204 S300
M205 X30 Y30
G0 F4500 X61.11 Y106.11
M204 S100
M205 X20 Y20
G1 F1800 X48.89 Y106.11 E122.31645
G1 X48.89 Y93.89 E122.86068
G1 X61.11 Y93.89 E123.40492
G1 X61.11 Y106.11 E123.94915
M204 S300
M205 X30 Y30
G0 F4500 X61.51 Y106.51
M204 S100
M205 X20 Y20
G1 F1800 X48.49 Y106.51 E124.52901
G1 X48.49 Y93.49 E125.10888
G1 X61.51 Y93.49 E125.68874
G1 X61.51 Y106.51 E126.26861
M204 S300
M205 X30 Y30
G0 F4500 X61.91 Y106.91
M204 S100
M205 X20 Y20
G1 F1800 X48.09 Y106.91 E126.8841
G1 X48.09 Y93.09 E127.49959
G1 X61.91 Y93.09 E128.11508
G1 X61.91 Y106.91 E128.73058
M204 S300
M205 X30 Y30
G0 F4500 X62.31 Y107.31
M204 S100
M205 X20 Y20
G1 F1800 X47.69 Y107.31 E129.3817
G1 X47.69 Y92.69 E130.03282
G1 X62.31 Y92.69 E130.68394
G1 X62.31 Y107.31 E131.33506
M204 S300
M205 X30 Y30
G0 F4500 X62.71 Y107.71
M204 S100
M205 X20 Y20
G1 F1800 X47.29 Y107.71 E132.02181
G1 X47.29 Y92.29 E132.70856
G1 X62.71 Y92.29 E133.39531
G1 X62.71 Y107.71 E134.08206
M204 S300
M205 X30 Y30
G0 F4500 X63.11 Y108.11
M204 S100
M205 X20 Y20
G1 F1800 X46.89 Y108.11 E134.80444
G1 X46.89 Y91.89 E135.52682
G1 X63.11 Y91.89 E136.2492
G1 X63.11 Y108.11 E136.97158
M204 S300
M205 X30 Y30
G0 F4500 X63.51 Y108.51
M204 S100
M205 X20 Y20
G1 F1800 X46.49 Y108.51 E137.72959
G1 X46.49 Y91.49 E138.4876
G1 X63.51 Y91.49 E139.24561
G1 X63.51 Y108.51 E140.00362
M204 S300
M205 X30 Y30
G0 F4500 X63.91 Y108.91
M204 S100
M205 X20 Y20
G1 F1800 X46.09 Y108.91 E140.79726
G1 X46.09 Y91.09 E141.59089
G1 X63.91 Y91.09 E142.38453
G1 X63.91 Y108.91 E143.17817
M204 S300
M205 X30 Y30
G0 F4500 X64.31 Y109.31
M204 S100
M205 X20 Y20
G1 F1800 X45.69 Y109.31 E144.00744
G1 X45.69 Y90.69 E144.8367
G1 X64.31 Y90.69 E145.66597
G1 X64.31 Y109.31 E146.49524
M204 S300
M205 X30 Y30
G0 F4500 X64.71 Y109.71
M204 S100
M205 X20 Y20
G1 F1800 X45.29 Y109.71 E147.36013
G1 X45.29 Y90.29 E148.22503
G1 X64.71 Y90.29 E149.08993
G1 X64.71 Y109.71 E149.95482
M204 S300
M205 X30 Y30
G0 F4500 X65.11 Y110.11
M204 S100
M205 X20 Y20
G1 F1800 X44.89 Y110.11 E150.85535
G1 X44.89 Y89.89 E151.75587
G1 X65.11 Y89.89 E152.6564
G1 X65.11 Y110.11 E153.55692
M204 S300
M205 X30 Y30
G0 F4500 X65.51 Y110.51
M204 S100
M205 X20 Y20
G1 F1800 X44.49 Y110.51 E154.49308
G1 X44.49 Y89.49 E155.42923
G1 X65.51 Y89.49 E156.36539
G1 X65.51 Y110.51 E157.30154
M204 S300
M205 X30 Y30
G0 F4500 X65.91 Y110.91
M204 S100
M205 X20 Y20
G1 F1800 X44.09 Y110.91 E158.27332
G1 X44.09 Y89.09 E159.24511
G1 X65.91 Y89.09 E160.21689
G1 X65.91 Y110.91 E161.18867
M204 S300
M205 X30 Y30
G0 F4500 X66.31 Y111.31
M204 S100
M205 X20 Y20
G1 F1800 X43.69 Y111.31 E162.19609
G1 X43.69 Y88.69 E163.2035
G1 X66.31 Y88.69 E164.21091
G1 X66.31 Y111.31 E165.21832
M204 S300
M205 X30 Y30
G0 F4500 X66.71 Y111.71
M204 S100
M205 X20 Y20
G1 F1800 X43.29 Y111.71 E166.26137
G1 X43.29 Y88.29 E167.30441
G1 X66.71 Y88.29 E168.34745
G1 X66.71 Y111.71 E169.39049
M204 S300
M205 X30 Y30
G0 F4500 X67.11 Y112.11
M204 S100
M205 X20 Y20
G1 F1800 X42.89 Y112.11 E170.46916
G1 X42.89 Y87.89 E171.54783
G1 X67.11 Y87.89 E172.6265
G1 X67.11 Y112.11 E173.70517
M204 S300
M205 X30 Y30
G0 F4500 X67.51 Y112.51
M204 S100
M205 X20 Y20
G1 F1800 X42.49 Y112.51 E174.81947
G1 X42.49 Y87.49 E175.93377
G1 X67.51 Y87.49 E177.04807
G1 X67.51 Y112.51 E178.16237
M204 S300
M205 X30 Y30
G0 F4500 X67.91 Y112.91
M204 S100
M205 X20 Y20
G1 F1800 X42.09 Y112.91 E179.3123
G1 X42.09 Y87.09 E180.46223
G1 X67.91 Y87.09 E181.61216
G1 X67.91 Y112.91 E182.76209
M204 S300
M205 X30 Y30
G0 F4500 X68.31 Y113.31
M204 S100
M205 X20 Y20
G1 F1800 X41.69 Y113.31 E183.94765
G1 X41.69 Y86.69 E185.1332
G1 X68.31 Y86.69 E186.31876
G1 X68.31 Y113.31 E187.50432
M204 S300
M205 X30 Y30
G0 F4500 X68.71 Y113.71
M204 S100
M205 X20 Y20
G1 F1800 X41.29 Y113.71 E188.72551
G1 X41.29 Y86.29 E189.94669
G1 X68.71 Y86.29 E191.16788
G1 X68.71 Y113.71 E192.38907
M204 S300
M205 X30 Y30
G0 F4500 X69.11 Y114.11
M204 S100
M205 X20 Y20
G1 F1800 X40.89 Y114.11 E193.64588
G1 X40.89 Y85.89 E194.9027
G1 X69.11 Y85.89 E196.15952
G1 X69.11 Y114.11 E197.41633
M204 S300
M205 X30 Y30
G0 F4500 X69.51 Y114.51
M204 S100
M205 X20 Y20
G1 F1800 X40.49 Y114.51 E198.70878
G1 X40.49 Y85.49 E200.00122
G1 X69.51 Y85.49 E201.29367
G1 X69.51 Y114.51 E202.58611
M204 S300
M205 X30 Y30
G0 F4500 X69.91 Y114.91
M204 S100
M205 X20 Y20
G1 F1800 X40.09 Y114.91 E203.91419
G1 X40.09 Y85.09 E205.24226
G1 X69.91 Y85.09 E206.57033
G1 X69.91 Y114.91 E207.89841
M204 S300
M205 X30 Y30
G0 F4500 X70.31 Y115.31
M204 S100
M205 X20 Y20
G1 F1800 X39.69 Y115.31 E209.26211
G1 X39.69 Y84.69 E210.62582
G1 X70.31 Y84.69 E211.98952
G1 X70.31 Y115.31 E213.35322
M204 S300
M205 X30 Y30
G0 F4500 X70.71 Y115.71
M204 S100
M205 X20 Y20
G1 F1800 X39.29 Y115.71 E214.75255
G1 X39.29 Y84.29 E216.15189
G1 X70.71 Y84.29 E217.55122
G1 X70.71 Y115.71 E218.95055
M204 S300
M205 X30 Y30
G0 F4500 X71.11 Y116.11
M204 S100
M205 X20 Y20
G1 F1800 X38.89 Y116.11 E220.38551
G1 X38.89 Y83.89 E221.82048
G1 X71.11 Y83.89 E223.25544
G1 X71.11 Y116.11 E224.6904
M204 S300
M205 X30 Y30
G0 F4500 X71.51 Y116.51
M204 S100
M205 X20 Y20
G1 F1800 X38.49 Y116.51 E226.16099
G1 X38.49 Y83.49 E227.63158
G1 X71.51 Y83.49 E229.10217
G1 X71.51 Y116.51 E230.57276
M204 S300
M205 X30 Y30
G0 F4500 X71.91 Y116.91
M204 S100
M205 X20 Y20
G1 F1800 X38.09 Y116.91 E232.07898
G1 X38.09 Y83.09 E233.5852
G1 X71.91 Y83.09 E235.09142
G1 X71.91 Y116.91 E236.59764
M204 S300
M205 X30 Y30
G0 F4500 X72.31 Y117.31
M204 S100
M205 X20 Y20
G1 F1800 X37.69 Y117.31 E238.13949
G1 X37.69 Y82.69 E239.68134
G1 X72.31 Y82.69 E241.22319
G1 X72.31 Y117.31 E242.76503
M204 S300
M205 X30 Y30
G0 F4500 X72.71 Y117.71
M204 S100
M205 X20 Y20
G1 F1800 X37.29 Y117.71 E244.34251
G1 X37.29 Y82.29 E245.91999
G1 X72.71 Y82.29 E247.49747
G1 X72.71 Y117.71 E249.07495
M204 S300
M205 X30 Y30
G0 F4500 X73.11 Y118.11
M204 S100
M205 X20 Y20
G1 F1800 X36.89 Y118.11 E250.68805
G1 X36.89 Y81.89 E252.30116
G1 X73.11 Y81.89 E253.91427
G1 X73.11 Y118.11 E255.52737
M204 S300
M205 X30 Y30
G0 F4500 X73.51 Y118.51
M204 S100
M205 X20 Y20
G1 F1800 X36.49 Y118.51 E257.17611
G1 X36.49 Y81.49 E258.82485
G1 X73.51 Y81.49 E260.47358
G1 X73.51 Y118.51 E262.12232
M204 S300
M205 X30 Y30
G0 F4500 X73.91 Y118.91
M204 S100
M205 X20 Y20
G1 F1800 X36.09 Y118.91 E263.80668
G1 X36.09 Y81.09 E265.49105
G1 X73.91 Y81.09 E267.17541
G1 X73.91 Y118.91 E268.85978
M204 S300
M205 X30 Y30
G0 F4500 X74.31 Y119.31
M204 S100
M205 X20 Y20
G1 F1800 X35.69 Y119.31 E270.57977
G1 X35.69 Y80.69 E272.29977
G1 X74.31 Y80.69 E274.01976
G1 X74.31 Y119.31 E275.73976
M204 S300
M205 X30 Y30
G0 F4500 X74.71 Y119.71
M204 S100
M205 X20 Y20
G1 F1800 X35.29 Y119.71 E277.49538
G1 X35.29 Y80.29 E279.251
G1 X74.71 Y80.29 E281.00663
G1 X74.71 Y119.71 E282.76225
M204 S300
M205 X30 Y30
G0 F4500 X75.11 Y120.11
M204 S100
M205 X20 Y20
G1 F1800 X34.89 Y120.11 E284.5535
G1 X34.89 Y79.89 E286.34475
G1 X75.11 Y79.89 E288.13601
G1 X75.11 Y120.11 E289.92726
M204 S300
M205 X30 Y30
G0 F4500 X75.51 Y120.51
M204 S100
M205 X20 Y20
G1 F1800 X34.49 Y120.51 E291.75414
G1 X34.49 Y79.49 E293.58102
G1 X75.51 Y79.49 E295.4079
G1 X75.51 Y120.51 E297.23478
